;Gcode generated by Cura by Dagoma 2.1.4
;Printer: Neva
;Date: 15-04-2020
;Time: 15:25:46
;Print duration: 1 h 58 min
;Layer height: 0.2 mm
;Filling: 10.0 %
;Print speed: 40.0 mm/s
;Support: None
;Filament:
;- Material: Other PLA type Generic
;- Temperature: 205.0 °C
;- Flow: 100.0 %
;- Retraction amount: 4.5 mm
;- Retraction speed: 65.0 mm/s
;- Length: 1.50 m
;- Weight: 5 g
;- Cost: 0.21 EUR
G90 ;absolute positioning
G28
M107
M109 R100
G29
M109 S220 U-55 X55 V-85 Y-85 W0.26 Z0.26 ;Temperature for the first layer only
M82 ;set extruder to absolute mode
G92 E0 ;zero the extruded length
G1 F200 E6 ;extrude 10mm of feed stock
G92 E0 ;zero the extruded length again
G1 F200 E-3.5
G0 Z0.15
G0 X10
G0 Z3
G1 F4800
M117 Printing...

;Layer count: 450
;LAYER:0
M104 S220
M117 Nb = 1 / 450
M107
G0 F4800 X-2.700 Y-2.700 Z0.260
;TYPE:SKIRT
G1 F1020 X-2.700 Y2.700 E0.23349
G1 X2.700 Y2.700 E0.46697
G1 X2.700 Y-2.700 E0.70046
G1 X-2.700 Y-2.700 E0.93394
G0 F4800 X-3.100 Y-3.100
G1 F1020 X-3.100 Y3.100 E1.20202
G1 X3.100 Y3.100 E1.47010
G1 X3.100 Y-3.100 E1.73817
G1 X-3.100 Y-3.100 E2.00625
G0 F4800 X-3.500 Y-3.500
G1 F1020 X-3.500 Y3.500 E2.30892
G1 X3.500 Y3.500 E2.61159
G1 X3.500 Y-3.500 E2.91425
G1 X-3.500 Y-3.500 E3.21692
G0 F4800 X-3.900 Y-3.900
G1 F1020 X-3.900 Y3.900 E3.55418
G1 X3.900 Y3.900 E3.89144
G1 X3.900 Y-3.900 E4.22869
G1 X-3.900 Y-3.900 E4.56595
G0 F4800 X-4.300 Y-4.300
G1 F1020 X-4.300 Y4.300 E4.93780
G1 X4.300 Y4.300 E5.30965
G1 X4.300 Y-4.300 E5.68150
G1 X-4.300 Y-4.300 E6.05334
G0 F4800 X-4.700 Y-4.700
G1 F1020 X-4.700 Y4.700 E6.45978
G1 X4.700 Y4.700 E6.86622
G1 X4.700 Y-4.700 E7.27266
G1 X-4.700 Y-4.700 E7.67910
G0 F4800 X-5.100 Y-5.100
G1 F1020 X-5.100 Y5.100 E8.12013
G1 X5.100 Y5.100 E8.56116
G1 X5.100 Y-5.100 E9.00219
G1 X-5.100 Y-5.100 E9.44322
G0 F4800 X-5.500 Y-5.500
G1 F1020 X-5.500 Y5.500 E9.91884
G1 X5.500 Y5.500 E10.39446
G1 X5.500 Y-5.500 E10.87008
G1 X-5.500 Y-5.500 E11.34570
G0 F4800 X-5.900 Y-5.900
G1 F1020 X-5.900 Y5.900 E11.85591
G1 X5.900 Y5.900 E12.36612
G1 X5.900 Y-5.900 E12.87633
G1 X-5.900 Y-5.900 E13.38654
G0 F4800 X-6.300 Y-6.300
G1 F1020 X-6.300 Y6.300 E13.93134
G1 X6.300 Y6.300 E14.47614
G1 X6.300 Y-6.300 E15.02094
G1 X-6.300 Y-6.300 E15.56574
G0 F4800 X-7.700 Y-7.559
G1 F1020 X7.700 Y-7.559 E16.23161
G1 X7.700 Y7.700 E16.89138
G1 X-7.700 Y7.700 E17.55725
G1 X-7.700 Y-7.559 E18.21702
G0 F4800 X-8.100 Y-7.959
G1 F1020 X8.100 Y-7.959 E18.91748
G1 X8.100 Y8.100 E19.61184
G1 X-8.100 Y8.100 E20.31230
G1 X-8.100 Y-7.959 E21.00666
G0 F4800 X-8.500 Y-8.359
G1 F1020 X8.500 Y-8.359 E21.74171
G1 X8.500 Y8.500 E22.47066
G1 X-8.500 Y8.500 E23.20571
G1 X-8.500 Y-8.359 E23.93467
G0 F4800 X-8.900 Y-8.759
G1 F1020 X8.900 Y-8.759 E24.70430
G1 X8.900 Y8.900 E25.46785
G1 X-8.900 Y8.900 E26.23749
G1 X-8.900 Y-8.759 E27.00103
G0 F4800 X-9.300 Y-9.159
G1 F1020 X9.300 Y-9.159 E27.80526
G1 X9.300 Y9.300 E28.60339
G1 X-9.300 Y9.300 E29.40762
G1 X-9.300 Y-9.159 E30.20576
G0 F4800 X-9.700 Y-9.559
G1 F1020 X9.700 Y-9.559 E31.04458
G1 X9.700 Y9.700 E31.87730
G1 X-9.700 Y9.700 E32.71612
G1 X-9.700 Y-9.559 E33.54885
G0 F4800 X-10.100 Y-9.959
G1 F1020 X10.100 Y-9.959 E34.42226
G1 X10.100 Y10.100 E35.28957
G1 X-10.100 Y10.100 E36.16298
G1 X-10.100 Y-9.959 E37.03030
G0 F4800 X-10.500 Y-10.359
G1 F1020 X10.500 Y-10.359 E37.93830
G1 X10.500 Y10.500 E38.84020
G1 X-10.500 Y10.500 E39.74821
G1 X-10.500 Y-10.359 E40.65011
G0 F4800 X-10.900 Y-10.759
G1 F1020 X10.900 Y-10.759 E41.59270
G1 X10.900 Y10.900 E42.52920
G1 X-10.900 Y10.900 E43.47179
G1 X-10.900 Y-10.759 E44.40829
G0 F4800 X-11.300 Y-11.158
G1 F1020 X-0.500 Y-11.160 E44.87526
G1 X11.300 Y-11.159 E45.38547
G1 X11.300 Y11.300 E46.35656
G1 X-11.300 Y11.300 E47.33374
G1 X-11.300 Y-11.158 E48.30478
G1 F3900 E43.80478
G0 F4800 X-7.300 Y-7.159
;TYPE:WALL-OUTER
G1 F3900 E48.30478
G1 F1020 X7.300 Y-7.159 E48.93606
G1 X7.300 Y7.300 E49.56124
G1 X-7.300 Y7.300 E50.19252
G1 X-7.300 Y-7.159 E50.81770
G0 F4800 X-6.700 Y-6.700
G1 F1020 X-6.700 Y6.700 E51.39709
G1 X6.700 Y6.700 E51.97648
G1 X6.700 Y-6.700 E52.55587
G1 X-6.700 Y-6.700 E53.13526
G0 F4800 X-6.799 Y-6.516
;TYPE:SKIN
G1 F1020 X-6.987 Y-6.987 E53.15966
G1 X-6.363 Y-6.929 E53.17551
G1 X-5.797 Y-6.929 E53.19130
G1 X-5.232 Y-6.929 E53.20711
G1 X-4.666 Y-6.929 E53.22296
G1 X-4.100 Y-6.929 E53.23881
G1 X-3.535 Y-6.929 E53.25462
G1 X-2.969 Y-6.929 E53.27047
G1 X-2.403 Y-6.929 E53.28632
G1 X-1.838 Y-6.929 E53.30213
G1 X-1.272 Y-6.929 E53.31798
G1 X-0.706 Y-6.929 E53.33383
G1 X-0.141 Y-6.929 E53.34964
G1 X0.424 Y-6.929 E53.36546
G1 X0.990 Y-6.929 E53.38131
G1 X1.555 Y-6.929 E53.39713
G1 X2.121 Y-6.929 E53.41291
G1 X2.687 Y-6.929 E53.42876
G1 X3.252 Y-6.929 E53.44458
G1 X3.818 Y-6.929 E53.46036
G1 X4.384 Y-6.929 E53.47621
G1 X4.950 Y-6.929 E53.49205
G1 X5.515 Y-6.929 E53.50787
G1 X6.081 Y-6.929 E53.52372
G1 X6.647 Y-6.929 E53.53956
G1 X6.999 Y-6.576 E53.56397
G1 X6.999 Y-6.010 E53.58845
G1 X6.999 Y-5.445 E53.61288
G1 X6.999 Y-4.879 E53.63729
G1 X6.999 Y-4.313 E53.66176
G1 X6.999 Y-3.748 E53.68619
G1 X6.999 Y-3.182 E53.71060
G1 X6.999 Y-2.616 E53.73501
G1 X6.999 Y-2.051 E53.75944
G1 X6.999 Y-1.485 E53.78386
G1 X6.999 Y-0.919 E53.80827
G1 X6.999 Y-0.353 E53.83274
G1 X6.999 Y0.211 E53.85713
G1 X6.999 Y0.776 E53.88156
G1 X6.999 Y1.342 E53.90603
G1 X6.999 Y1.908 E53.93044
G1 X6.999 Y2.473 E53.95487
G1 X6.999 Y3.039 E53.97934
G1 X6.999 Y3.605 E54.00375
G1 X6.999 Y4.170 E54.02818
G1 X6.999 Y4.736 E54.05266
G1 X6.999 Y5.302 E54.07707
G1 X6.999 Y5.868 E54.10148
G1 X6.999 Y6.433 E54.12591
G1 X7.057 Y7.057 E54.15036
G1 X6.433 Y6.999 E54.17482
G1 X5.868 Y6.999 E54.19925
G1 X5.302 Y6.999 E54.22366
G1 X4.736 Y6.999 E54.24807
G1 X4.170 Y6.999 E54.27255
G1 X3.605 Y6.999 E54.29697
G1 X3.039 Y6.999 E54.32139
G1 X2.473 Y6.999 E54.34586
G1 X1.908 Y6.999 E54.37029
G1 X1.342 Y6.999 E54.39470
G1 X0.776 Y6.999 E54.41917
G1 X0.211 Y6.999 E54.44360
G1 X-0.353 Y6.999 E54.46799
G1 X-0.919 Y6.999 E54.49246
G1 X-1.485 Y6.999 E54.51687
G1 X-2.051 Y6.999 E54.54129
G1 X-2.616 Y6.999 E54.56571
G1 X-3.182 Y6.999 E54.59013
G1 X-3.748 Y6.999 E54.61454
G1 X-4.313 Y6.999 E54.63897
G1 X-4.879 Y6.999 E54.66344
G1 X-5.445 Y6.999 E54.68785
G1 X-6.010 Y6.999 E54.71228
G1 X-6.646 Y6.646 E54.73673
G1 X-6.999 Y6.010 E54.76119
G1 X-6.999 Y5.445 E54.78562
G1 X-6.999 Y4.879 E54.81003
G1 X-6.999 Y4.313 E54.83450
G1 X-6.999 Y3.748 E54.85893
G1 X-6.999 Y3.182 E54.88334
G1 X-6.999 Y2.616 E54.90776
G1 X-6.999 Y2.051 E54.93218
G1 X-6.999 Y1.485 E54.95660
G1 X-6.999 Y0.919 E54.98101
G1 X-6.999 Y0.353 E55.00548
G1 X-6.999 Y-0.211 E55.02987
G1 X-6.999 Y-0.776 E55.05430
G1 X-6.999 Y-1.342 E55.07877
G1 X-6.999 Y-1.908 E55.10318
G1 X-6.999 Y-2.473 E55.12761
G1 X-6.999 Y-3.039 E55.15208
G1 X-6.999 Y-3.605 E55.17650
G1 X-6.999 Y-4.170 E55.20092
G1 X-6.999 Y-4.736 E55.22540
G1 X-6.999 Y-5.302 E55.24981
G1 X-6.999 Y-5.868 E55.27422
G1 X-7.199 Y-6.351 E55.29682
G0 F4800 X-7.000 Y-6.351
G0 X-7.000 Y6.659
G0 X-7.199 Y6.659
G1 F1020 X-6.659 Y7.199 E55.32984
;LAYER:1
M117 Nb = 2 / 450
M106 S35
G0 F4800 X-6.700 Y6.700 Z0.460
;TYPE:WALL-OUTER
G1 F480 X6.700 Y6.700 E55.77553
G1 X6.700 Y-6.700 E56.22122
G1 X-6.700 Y-6.700 E56.66690
G1 X-6.700 Y6.700 E57.11259
G0 F4800 X-7.300 Y7.300
G1 F480 X-7.300 Y-7.300 E57.59819
G1 X7.300 Y-7.300 E58.08378
G1 X7.300 Y7.300 E58.56938
G1 X-7.300 Y7.300 E59.05498
G0 F4800 X-6.916 Y7.199
;TYPE:SKIN
G1 F540 X-6.657 Y6.657 E59.07376
G1 X-7.199 Y6.633 E59.09253
G1 X-6.999 Y5.868 E59.11133
G1 X-6.999 Y5.302 E59.13011
G1 X-6.999 Y4.736 E59.14889
G1 X-6.999 Y4.170 E59.16771
G1 X-6.999 Y3.605 E59.18650
G1 X-6.999 Y3.039 E59.20528
G1 X-6.999 Y2.473 E59.22411
G1 X-6.999 Y1.908 E59.24290
G1 X-6.999 Y1.342 E59.26168
G1 X-6.999 Y0.776 E59.28050
G1 X-6.999 Y0.211 E59.29929
G1 X-6.999 Y-0.353 E59.31805
G1 X-6.999 Y-0.919 E59.33688
G1 X-6.999 Y-1.485 E59.35566
G1 X-6.999 Y-2.051 E59.37444
G1 X-6.999 Y-2.616 E59.39323
G1 X-6.999 Y-3.182 E59.41201
G1 X-6.999 Y-3.748 E59.43078
G1 X-6.999 Y-4.313 E59.44958
G1 X-6.999 Y-4.879 E59.46840
G1 X-6.999 Y-5.445 E59.48718
G1 X-6.999 Y-6.010 E59.50597
G1 X-6.646 Y-6.646 E59.52478
G1 X-6.010 Y-6.999 E59.54359
G1 X-5.445 Y-6.999 E59.56238
G1 X-4.879 Y-6.999 E59.58116
G1 X-4.313 Y-6.999 E59.59999
G1 X-3.748 Y-6.999 E59.61878
G1 X-3.182 Y-6.999 E59.63756
G1 X-2.616 Y-6.999 E59.65634
G1 X-2.051 Y-6.999 E59.67513
G1 X-1.485 Y-6.999 E59.69391
G1 X-0.919 Y-6.999 E59.71268
G1 X-0.353 Y-6.999 E59.73151
G1 X0.211 Y-6.999 E59.75027
G1 X0.776 Y-6.999 E59.76906
G1 X1.342 Y-6.999 E59.78788
G1 X1.908 Y-6.999 E59.80666
G1 X2.473 Y-6.999 E59.82545
G1 X3.039 Y-6.999 E59.84428
G1 X3.605 Y-6.999 E59.86306
G1 X4.170 Y-6.999 E59.88185
G1 X4.736 Y-6.999 E59.90068
G1 X5.302 Y-6.999 E59.91945
G1 X5.868 Y-6.999 E59.93823
G1 X6.433 Y-6.999 E59.95702
G1 X7.057 Y-7.057 E59.97584
G1 X6.999 Y-6.433 E59.99465
G1 X6.999 Y-5.868 E60.01344
G1 X6.999 Y-5.302 E60.03222
G1 X6.999 Y-4.736 E60.05099
G1 X6.999 Y-4.170 E60.06982
G1 X6.999 Y-3.605 E60.08861
G1 X6.999 Y-3.039 E60.10739
G1 X6.999 Y-2.473 E60.12622
G1 X6.999 Y-1.908 E60.14501
G1 X6.999 Y-1.342 E60.16379
G1 X6.999 Y-0.776 E60.18261
G1 X6.999 Y-0.211 E60.20140
G1 X6.999 Y0.353 E60.22016
G1 X6.999 Y0.919 E60.23899
G1 X6.999 Y1.485 E60.25777
G1 X6.999 Y2.051 E60.27654
G1 X6.999 Y2.616 E60.29534
G1 X6.999 Y3.182 E60.31411
G1 X6.999 Y3.748 E60.33289
G1 X6.999 Y4.313 E60.35168
G1 X6.999 Y4.879 E60.37051
G1 X6.999 Y5.445 E60.38929
G1 X6.999 Y6.010 E60.40808
G1 X6.646 Y6.646 E60.42689
G1 X6.010 Y6.999 E60.44570
G1 X5.445 Y6.999 E60.46449
G1 X4.879 Y6.999 E60.48327
G1 X4.313 Y6.999 E60.50209
G1 X3.748 Y6.999 E60.52089
G1 X3.182 Y6.999 E60.53967
G1 X2.616 Y6.999 E60.55844
G1 X2.051 Y6.999 E60.57724
G1 X1.485 Y6.999 E60.59601
G1 X0.919 Y6.999 E60.61479
G1 X0.353 Y6.999 E60.63362
G1 X-0.211 Y6.999 E60.65238
G1 X-0.776 Y6.999 E60.67117
G1 X-1.342 Y6.999 E60.68999
G1 X-1.908 Y6.999 E60.70877
G1 X-2.473 Y6.999 E60.72756
G1 X-3.039 Y6.999 E60.74639
G1 X-3.605 Y6.999 E60.76517
G1 X-4.170 Y6.999 E60.78396
G1 X-4.736 Y6.999 E60.80278
G1 X-5.302 Y6.999 E60.82156
G1 X-5.868 Y6.999 E60.84034
G1 X-6.351 Y7.199 E60.85773
G0 F4800 X-6.351 Y7.000
G0 X6.659 Y7.000
G0 X6.659 Y7.199
G1 F540 X7.199 Y6.659 E60.88313
G0 F4800 X7.000 Y6.659
G0 X7.041 Y-7.041
G0 X-6.659 Y-7.000
G0 X-6.659 Y-7.199
G1 F540 X-7.199 Y-6.659 E60.90853
;LAYER:2
M117 Nb = 3 / 450
M106 S71
G0 F4800 X-6.700 Y-6.700 Z0.660
;TYPE:WALL-OUTER
G1 F480 X-6.700 Y6.700 E61.35421
G1 X6.700 Y6.700 E61.79990
G1 X6.700 Y-6.700 E62.24558
G1 X-6.700 Y-6.700 E62.69127
G0 F4800 X-6.791 Y-7.300
G1 F480 X7.300 Y-7.300 E63.15994
G1 X7.300 Y7.300 E63.64554
G1 X-7.300 Y7.300 E64.13113
G1 X-7.300 Y-7.294 E64.61653
G1 X-6.791 Y-7.300 E64.63346
G0 F4800 X-6.914 Y-7.197
;TYPE:SKIN
G1 F600 X-6.657 Y-6.657 E64.65211
G1 X-7.199 Y-6.633 E64.67088
G1 X-6.999 Y-5.868 E64.68968
G1 X-6.999 Y-5.302 E64.70846
G1 X-6.999 Y-4.736 E64.72724
G1 X-6.999 Y-4.170 E64.74606
G1 X-6.999 Y-3.605 E64.76486
G1 X-6.999 Y-3.039 E64.78363
G1 X-6.999 Y-2.473 E64.80246
G1 X-6.999 Y-1.908 E64.82125
G1 X-6.999 Y-1.342 E64.84003
G1 X-6.999 Y-0.776 E64.85885
G1 X-6.999 Y-0.211 E64.87765
G1 X-6.999 Y0.353 E64.89640
G1 X-6.999 Y0.919 E64.91523
G1 X-6.999 Y1.485 E64.93401
G1 X-6.999 Y2.051 E64.95279
G1 X-6.999 Y2.616 E64.97158
G1 X-6.999 Y3.182 E64.99036
G1 X-6.999 Y3.748 E65.00913
G1 X-6.999 Y4.313 E65.02793
G1 X-6.999 Y4.879 E65.04675
G1 X-6.999 Y5.445 E65.06553
G1 X-6.999 Y6.010 E65.08432
G1 X-6.646 Y6.646 E65.10313
G1 X-6.010 Y6.999 E65.12194
G1 X-5.445 Y6.999 E65.14073
G1 X-4.879 Y6.999 E65.15951
G1 X-4.313 Y6.999 E65.17834
G1 X-3.748 Y6.999 E65.19713
G1 X-3.182 Y6.999 E65.21591
G1 X-2.616 Y6.999 E65.23469
G1 X-2.051 Y6.999 E65.25348
G1 X-1.485 Y6.999 E65.27226
G1 X-0.919 Y6.999 E65.29103
G1 X-0.353 Y6.999 E65.30986
G1 X0.211 Y6.999 E65.32862
G1 X0.776 Y6.999 E65.34741
G1 X1.342 Y6.999 E65.36624
G1 X1.908 Y6.999 E65.38501
G1 X2.473 Y6.999 E65.40381
G1 X3.039 Y6.999 E65.42263
G1 X3.605 Y6.999 E65.44141
G1 X4.170 Y6.999 E65.46020
G1 X4.736 Y6.999 E65.47903
G1 X5.302 Y6.999 E65.49780
G1 X5.868 Y6.999 E65.51658
G1 X6.433 Y6.999 E65.53538
G1 X7.057 Y7.057 E65.55419
G1 X6.999 Y6.433 E65.57300
G1 X6.999 Y5.868 E65.59179
G1 X6.999 Y5.302 E65.61057
G1 X6.999 Y4.736 E65.62935
G1 X6.999 Y4.170 E65.64817
G1 X6.999 Y3.605 E65.66696
G1 X6.999 Y3.039 E65.68574
G1 X6.999 Y2.473 E65.70457
G1 X6.999 Y1.908 E65.72336
G1 X6.999 Y1.342 E65.74214
G1 X6.999 Y0.776 E65.76096
G1 X6.999 Y0.211 E65.77975
G1 X6.999 Y-0.353 E65.79851
G1 X6.999 Y-0.919 E65.81734
G1 X6.999 Y-1.485 E65.83612
G1 X6.999 Y-2.051 E65.85489
G1 X6.999 Y-2.616 E65.87369
G1 X6.999 Y-3.182 E65.89246
G1 X6.999 Y-3.748 E65.91124
G1 X6.999 Y-4.313 E65.93003
G1 X6.999 Y-4.879 E65.94886
G1 X6.999 Y-5.445 E65.96764
G1 X6.999 Y-6.010 E65.98643
G1 X6.646 Y-6.646 E66.00524
G1 X6.011 Y-6.999 E66.02403
G1 X5.445 Y-6.999 E66.04281
G1 X4.880 Y-6.999 E66.06155
G1 X4.314 Y-6.999 E66.08033
G1 X3.748 Y-6.999 E66.09911
G1 X3.182 Y-6.999 E66.11784
G1 X2.617 Y-6.999 E66.13658
G1 X2.051 Y-6.999 E66.15536
G1 X1.485 Y-6.999 E66.17409
G1 X0.920 Y-6.999 E66.19284
G1 X0.354 Y-6.999 E66.21162
G1 X-0.210 Y-6.999 E66.23038
G1 X-0.776 Y-6.999 E66.24911
G1 X-1.342 Y-6.999 E66.26788
G1 X-1.908 Y-6.999 E66.28666
G1 X-2.473 Y-6.999 E66.30541
G1 X-3.039 Y-6.999 E66.32419
G1 X-3.605 Y-6.999 E66.34296
G1 X-4.170 Y-6.999 E66.36171
G1 X-4.736 Y-6.999 E66.38049
G1 X-5.302 Y-6.999 E66.39927
G1 X-5.867 Y-6.999 E66.41801
G1 X-6.350 Y-7.199 E66.43540
G0 F4800 X-6.350 Y-7.000
G0 X6.660 Y-7.000
G0 X6.660 Y-7.199
G1 F600 X7.199 Y-6.659 E66.46077
G0 F4800 X7.000 Y-6.659
G0 X7.041 Y7.041
G0 X-6.659 Y7.000
G0 X-6.659 Y7.199
G1 F600 X-7.199 Y6.659 E66.48617
;LAYER:3
M117 Nb = 4 / 450
M106 S107
G0 F4800 X-6.700 Y6.700 Z0.860
;TYPE:WALL-OUTER
G1 F480 X6.700 Y6.700 E66.93186
G1 X6.700 Y-6.700 E67.37755
G1 X-6.700 Y-6.700 E67.82323
G1 X-6.700 Y6.700 E68.26892
G0 F4800 X-7.300 Y7.300
G1 F480 X-7.300 Y-7.300 E68.75452
G1 X7.300 Y-7.300 E69.24011
G1 X7.300 Y7.300 E69.72571
G1 X-7.300 Y7.300 E70.21131
G0 F4800 X-6.916 Y7.199
;TYPE:SKIN
G1 F600 X-6.657 Y6.657 E70.23009
G1 X-7.199 Y6.633 E70.24886
G1 X-6.999 Y5.868 E70.26766
G1 X-6.999 Y5.302 E70.28644
G1 X-6.999 Y4.736 E70.30522
G1 X-6.999 Y4.170 E70.32404
G1 X-6.999 Y3.605 E70.34283
G1 X-6.999 Y3.039 E70.36161
G1 X-6.999 Y2.473 E70.38044
G1 X-6.999 Y1.908 E70.39923
G1 X-6.999 Y1.342 E70.41801
G1 X-6.999 Y0.776 E70.43683
G1 X-6.999 Y0.211 E70.45562
G1 X-6.999 Y-0.353 E70.47438
G1 X-6.999 Y-0.919 E70.49321
G1 X-6.999 Y-1.485 E70.51199
G1 X-6.999 Y-2.051 E70.53076
G1 X-6.999 Y-2.616 E70.54956
G1 X-6.999 Y-3.182 E70.56834
G1 X-6.999 Y-3.748 E70.58711
G1 X-6.999 Y-4.313 E70.60591
G1 X-6.999 Y-4.879 E70.62473
G1 X-6.999 Y-5.445 E70.64351
G1 X-6.999 Y-6.010 E70.66230
G1 X-6.646 Y-6.646 E70.68111
G1 X-6.010 Y-6.999 E70.69992
G1 X-5.445 Y-6.999 E70.71871
G1 X-4.879 Y-6.999 E70.73749
G1 X-4.313 Y-6.999 E70.75632
G1 X-3.748 Y-6.999 E70.77511
G1 X-3.182 Y-6.999 E70.79389
G1 X-2.616 Y-6.999 E70.81266
G1 X-2.051 Y-6.999 E70.83146
G1 X-1.485 Y-6.999 E70.85023
G1 X-0.919 Y-6.999 E70.86901
G1 X-0.353 Y-6.999 E70.88784
G1 X0.211 Y-6.999 E70.90660
G1 X0.776 Y-6.999 E70.92539
G1 X1.342 Y-6.999 E70.94421
G1 X1.908 Y-6.999 E70.96299
G1 X2.473 Y-6.999 E70.98178
G1 X3.039 Y-6.999 E71.00061
G1 X3.605 Y-6.999 E71.01939
G1 X4.170 Y-6.999 E71.03818
G1 X4.736 Y-6.999 E71.05701
G1 X5.302 Y-6.999 E71.07578
G1 X5.868 Y-6.999 E71.09456
G1 X6.433 Y-6.999 E71.11335
G1 X7.057 Y-7.057 E71.13216
G1 X6.999 Y-6.433 E71.15098
G1 X6.999 Y-5.868 E71.16977
G1 X6.999 Y-5.302 E71.18855
G1 X6.999 Y-4.736 E71.20732
G1 X6.999 Y-4.170 E71.22615
G1 X6.999 Y-3.605 E71.24494
G1 X6.999 Y-3.039 E71.26372
G1 X6.999 Y-2.473 E71.28255
G1 X6.999 Y-1.908 E71.30134
G1 X6.999 Y-1.342 E71.32012
G1 X6.999 Y-0.776 E71.33894
G1 X6.999 Y-0.211 E71.35773
G1 X6.999 Y0.353 E71.37649
G1 X6.999 Y0.919 E71.39532
G1 X6.999 Y1.485 E71.41409
G1 X6.999 Y2.051 E71.43287
G1 X6.999 Y2.616 E71.45167
G1 X6.999 Y3.182 E71.47044
G1 X6.999 Y3.748 E71.48922
G1 X6.999 Y4.313 E71.50801
G1 X6.999 Y4.879 E71.52684
G1 X6.999 Y5.445 E71.54562
G1 X6.999 Y6.010 E71.56441
G1 X6.646 Y6.646 E71.58322
G1 X6.010 Y6.999 E71.60203
G1 X5.445 Y6.999 E71.62082
G1 X4.879 Y6.999 E71.63960
G1 X4.313 Y6.999 E71.65842
G1 X3.748 Y6.999 E71.67722
G1 X3.182 Y6.999 E71.69599
G1 X2.616 Y6.999 E71.71477
G1 X2.051 Y6.999 E71.73356
G1 X1.485 Y6.999 E71.75234
G1 X0.919 Y6.999 E71.77112
G1 X0.353 Y6.999 E71.78995
G1 X-0.211 Y6.999 E71.80871
G1 X-0.776 Y6.999 E71.82750
G1 X-1.342 Y6.999 E71.84632
G1 X-1.908 Y6.999 E71.86510
G1 X-2.473 Y6.999 E71.88389
G1 X-3.039 Y6.999 E71.90272
G1 X-3.605 Y6.999 E71.92150
G1 X-4.170 Y6.999 E71.94029
G1 X-4.736 Y6.999 E71.95911
G1 X-5.302 Y6.999 E71.97789
G1 X-5.868 Y6.999 E71.99667
G1 X-6.351 Y7.199 E72.01406
G0 F4800 X-6.351 Y7.000
G0 X6.659 Y7.000
G0 X6.659 Y7.199
G1 F600 X7.199 Y6.659 E72.03946
G0 F4800 X7.000 Y6.659
G0 X7.041 Y-7.041
G0 X-6.659 Y-7.000
G0 X-6.659 Y-7.199
G1 F600 X-7.199 Y-6.659 E72.06486
;LAYER:4
M117 Nb = 5 / 450
M106 S145
G0 F4800 X-6.700 Y-6.700 Z1.060
;TYPE:WALL-OUTER
G1 F480 X-6.700 Y6.700 E72.51054
G1 X6.700 Y6.700 E72.95623
G1 X6.700 Y-6.700 E73.40191
G1 X-6.700 Y-6.700 E73.84760
G0 F4800 X-7.300 Y-7.300
G1 F480 X7.300 Y-7.300 E74.33320
G1 X7.300 Y7.300 E74.81880
G1 X-7.300 Y7.300 E75.30439
G1 X-7.300 Y-7.300 E75.78999
G0 F4800 X-7.199 Y-6.916
;TYPE:SKIN
G1 F600 X-6.657 Y-6.657 E75.80877
G1 X-6.633 Y-7.199 E75.82754
G1 X-5.868 Y-6.999 E75.84634
G1 X-5.302 Y-6.999 E75.86512
G1 X-4.736 Y-6.999 E75.88390
G1 X-4.170 Y-6.999 E75.90272
G1 X-3.605 Y-6.999 E75.92152
G1 X-3.039 Y-6.999 E75.94029
G1 X-2.473 Y-6.999 E75.95912
G1 X-1.908 Y-6.999 E75.97791
G1 X-1.342 Y-6.999 E75.99669
G1 X-0.776 Y-6.999 E76.01552
G1 X-0.211 Y-6.999 E76.03431
G1 X0.353 Y-6.999 E76.05307
G1 X0.919 Y-6.999 E76.07189
G1 X1.485 Y-6.999 E76.09067
G1 X2.051 Y-6.999 E76.10945
G1 X2.616 Y-6.999 E76.12824
G1 X3.182 Y-6.999 E76.14702
G1 X3.748 Y-6.999 E76.16580
G1 X4.313 Y-6.999 E76.18459
G1 X4.879 Y-6.999 E76.20341
G1 X5.445 Y-6.999 E76.22219
G1 X6.010 Y-6.999 E76.24098
G1 X6.646 Y-6.646 E76.25979
G1 X6.999 Y-6.010 E76.27860
G1 X6.999 Y-5.445 E76.29740
G1 X6.999 Y-4.879 E76.31617
G1 X6.999 Y-4.313 E76.33500
G1 X6.999 Y-3.748 E76.35379
G1 X6.999 Y-3.182 E76.37257
G1 X6.999 Y-2.616 E76.39135
G1 X6.999 Y-2.051 E76.41014
G1 X6.999 Y-1.485 E76.42892
G1 X6.999 Y-0.919 E76.44770
G1 X6.999 Y-0.353 E76.46652
G1 X6.999 Y0.211 E76.48528
G1 X6.999 Y0.776 E76.50407
G1 X6.999 Y1.342 E76.52290
G1 X6.999 Y1.908 E76.54168
G1 X6.999 Y2.473 E76.56047
G1 X6.999 Y3.039 E76.57929
G1 X6.999 Y3.605 E76.59807
G1 X6.999 Y4.170 E76.61686
G1 X6.999 Y4.736 E76.63569
G1 X6.999 Y5.302 E76.65447
G1 X6.999 Y5.868 E76.67324
G1 X6.999 Y6.433 E76.69204
G1 X7.057 Y7.057 E76.71085
G1 X6.433 Y6.999 E76.72966
G1 X5.868 Y6.999 E76.74845
G1 X5.302 Y6.999 E76.76723
G1 X4.736 Y6.999 E76.78601
G1 X4.170 Y6.999 E76.80483
G1 X3.605 Y6.999 E76.82362
G1 X3.039 Y6.999 E76.84240
G1 X2.473 Y6.999 E76.86123
G1 X1.908 Y6.999 E76.88002
G1 X1.342 Y6.999 E76.89880
G1 X0.776 Y6.999 E76.91762
G1 X0.211 Y6.999 E76.93642
G1 X-0.353 Y6.999 E76.95517
G1 X-0.919 Y6.999 E76.97400
G1 X-1.485 Y6.999 E76.99278
G1 X-2.051 Y6.999 E77.01156
G1 X-2.616 Y6.999 E77.03035
G1 X-3.182 Y6.999 E77.04913
G1 X-3.748 Y6.999 E77.06790
G1 X-4.313 Y6.999 E77.08670
G1 X-4.879 Y6.999 E77.10552
G1 X-5.445 Y6.999 E77.12430
G1 X-6.010 Y6.999 E77.14309
G1 X-6.646 Y6.646 E77.16190
G1 X-6.999 Y6.010 E77.18071
G1 X-6.999 Y5.445 E77.19950
G1 X-6.999 Y4.879 E77.21828
G1 X-6.999 Y4.313 E77.23711
G1 X-6.999 Y3.748 E77.25590
G1 X-6.999 Y3.182 E77.27468
G1 X-6.999 Y2.616 E77.29346
G1 X-6.999 Y2.051 E77.31225
G1 X-6.999 Y1.485 E77.33103
G1 X-6.999 Y0.919 E77.34980
G1 X-6.999 Y0.353 E77.36863
G1 X-6.999 Y-0.211 E77.38739
G1 X-6.999 Y-0.776 E77.40618
G1 X-6.999 Y-1.342 E77.42501
G1 X-6.999 Y-1.908 E77.44378
G1 X-6.999 Y-2.473 E77.46258
G1 X-6.999 Y-3.039 E77.48140
G1 X-6.999 Y-3.605 E77.50018
G1 X-6.999 Y-4.170 E77.51897
G1 X-6.999 Y-4.736 E77.53780
G1 X-6.999 Y-5.302 E77.55657
G1 X-6.999 Y-5.868 E77.57535
G1 X-7.199 Y-6.351 E77.59274
G0 F4800 X-7.000 Y-6.351
G0 X-7.000 Y6.659
G0 X-7.199 Y6.659
G1 F600 X-6.659 Y7.199 E77.61814
G0 F4800 X-6.659 Y7.000
G0 X7.041 Y7.041
G0 X7.000 Y-6.659
G0 X7.199 Y-6.659
G1 F600 X6.659 Y-7.199 E77.64354
;LAYER:5
M117 Nb = 6 / 450
M106 S181
G0 F4800 X6.700 Y-6.700 Z1.260
;TYPE:WALL-OUTER
G1 F420 X-6.700 Y-6.700 E78.08923
G1 X-6.700 Y-2.992 E78.21255
G1 X-7.300 Y-2.990 E78.23251
G1 X-7.300 Y-7.300 E78.37586
G1 X7.300 Y-7.300 E78.86146
G1 X7.300 Y7.300 E79.34706
G1 X1.307 Y7.300 E79.54639
G1 X1.306 Y6.700 E79.56634
G1 X6.700 Y6.700 E79.74575
G1 X6.700 Y-6.700 E80.19143
G0 F4800 X6.799 Y-6.516
;TYPE:SKIN
G1 F600 X7.057 Y-7.057 E80.21022
G1 X6.433 Y-6.999 E80.22903
G1 X5.868 Y-6.999 E80.24782
G1 X5.302 Y-6.999 E80.26660
G1 X4.736 Y-6.999 E80.28538
G1 X4.170 Y-6.999 E80.30421
G1 X3.605 Y-6.999 E80.32300
G1 X3.039 Y-6.999 E80.34178
G1 X2.473 Y-6.999 E80.36060
G1 X1.908 Y-6.999 E80.37939
G1 X1.342 Y-6.999 E80.39817
G1 X0.776 Y-6.999 E80.41700
G1 X0.211 Y-6.999 E80.43579
G1 X-0.353 Y-6.999 E80.45455
G1 X-0.919 Y-6.999 E80.47337
G1 X-1.485 Y-6.999 E80.49215
G1 X-2.051 Y-6.999 E80.51093
G1 X-2.616 Y-6.999 E80.52972
G1 X-3.182 Y-6.999 E80.54850
G1 X-3.748 Y-6.999 E80.56728
G1 X-4.313 Y-6.999 E80.58607
G1 X-4.879 Y-6.999 E80.60490
G1 X-5.445 Y-6.999 E80.62367
G1 X-6.010 Y-6.999 E80.64247
G1 X-6.646 Y-6.646 E80.66128
G1 X-6.999 Y-6.011 E80.68006
G1 X-6.999 Y-5.445 E80.69884
G1 X-6.999 Y-4.880 E80.71759
G1 X-6.999 Y-4.314 E80.73636
G1 X-6.999 Y-3.748 E80.75514
G1 X-7.199 Y-3.266 E80.77250
G0 F4800 X-7.000 Y-3.266
G0 X-7.000 Y-6.660
G0 X-7.199 Y-6.660
G1 F600 X-6.659 Y-7.199 E80.79788
G0 F4800 X-6.659 Y-7.000
G0 X7.041 Y-7.041
G0 X7.000 Y-5.951
G0 X6.799 Y-5.951
G1 F600 X7.199 Y-6.068 E80.81669
G1 X6.999 Y-5.302 E80.83545
G1 X6.999 Y-4.736 E80.85423
G1 X6.999 Y-4.170 E80.87306
G1 X6.999 Y-3.605 E80.89185
G1 X6.999 Y-3.039 E80.91063
G1 X6.999 Y-2.473 E80.92945
G1 X6.999 Y-1.908 E80.94824
G1 X6.999 Y-1.342 E80.96702
G1 X6.999 Y-0.776 E80.98585
G1 X6.999 Y-0.211 E81.00464
G1 X6.999 Y0.353 E81.02340
G1 X6.999 Y0.919 E81.04222
G1 X6.999 Y1.485 E81.06100
G1 X6.999 Y2.051 E81.07978
G1 X6.999 Y2.616 E81.09857
G1 X6.999 Y3.182 E81.11735
G1 X6.999 Y3.748 E81.13613
G1 X6.999 Y4.313 E81.15492
G1 X6.999 Y4.879 E81.17375
G1 X6.999 Y5.445 E81.19252
G1 X6.999 Y6.010 E81.21132
G1 X6.646 Y6.646 E81.23013
G1 X6.011 Y6.998 E81.24896
G1 X5.445 Y6.998 E81.26779
G1 X4.879 Y6.998 E81.28661
G1 X4.314 Y6.998 E81.30545
G1 X3.748 Y6.998 E81.32428
G1 X3.182 Y6.998 E81.34310
G1 X2.616 Y6.998 E81.36193
G1 X2.051 Y6.998 E81.38072
G1 X1.568 Y7.199 E81.39812
G0 F4800 X1.568 Y7.000
G0 X6.659 Y7.000
G0 X6.659 Y7.199
G1 F600 X7.199 Y6.659 E81.42352
G1 F3900 E76.92352
G0 F4800 X-1.307 Y6.700
;TYPE:WALL-OUTER
G1 F3900 E81.42352
G1 F420 X-1.306 Y7.300 E81.44348
G1 X-7.300 Y7.300 E81.64284
G1 X-7.300 Y2.992 E81.78612
G1 X-6.700 Y2.991 E81.80608
G1 X-6.700 Y6.700 E81.92944
G1 X-1.307 Y6.700 E82.10881
G1 F3900 E77.60881
G0 F4800 X-6.700 Y2.589
G1 F3900 E82.10881
G1 F420 X-7.300 Y2.587 E82.12877
G1 X-7.300 Y-2.586 E82.30082
G1 X-6.700 Y-2.586 E82.32078
G1 X-6.700 Y2.589 E82.49290
G0 F4800 X-7.199 Y1.542
;TYPE:FILL
G1 F600 X-6.799 Y1.142 E82.51171
G0 F4800 X-7.000 Y1.142
G0 X-7.000 Y-1.142
G0 X-6.799 Y-1.142
G1 F600 X-7.199 Y-1.542 E82.53053
G1 F3900 E78.03053
G0 F4800 X-1.406 Y7.063
G1 F3900 E82.53053
G1 F600 X-1.683 Y7.199 E82.53692
G1 X-1.708 Y6.799 E82.55575
G1 X-2.473 Y6.999 E82.57455
G1 X-3.039 Y6.999 E82.59338
G1 X-3.605 Y6.999 E82.61215
G1 X-4.170 Y6.999 E82.63095
G1 X-4.736 Y6.999 E82.64977
G1 X-5.302 Y6.999 E82.66855
G1 X-5.868 Y6.999 E82.68733
G1 X-6.433 Y6.999 E82.70612
G1 X-7.057 Y7.057 E82.72493
G1 X-6.999 Y6.433 E82.74374
G1 X-6.999 Y5.867 E82.76247
G1 X-6.999 Y5.302 E82.78122
G1 X-6.999 Y4.736 E82.80000
G1 X-6.999 Y4.170 E82.81877
G1 X-6.999 Y3.605 E82.83752
G1 X-6.799 Y3.122 E82.85491
G0 F4800 X-7.199 Y2.390
;TYPE:SKIN
G1 F600 X-6.999 Y1.908 E82.87370
G1 X-6.999 Y1.342 E82.89247
G1 X-6.999 Y0.776 E82.91125
G1 X-6.999 Y0.210 E82.92998
G1 X-6.999 Y-0.354 E82.94874
G1 X-6.999 Y-0.920 E82.96752
G1 X-6.999 Y-1.485 E82.98627
G1 X-6.999 Y-2.051 E83.00500
G1 X-6.847 Y-2.486 E83.02032
;LAYER:6
M117 Nb = 7 / 450
M106 S216
G0 F4800 X-6.700 Y-2.926 Z1.460
;TYPE:WALL-OUTER
G1 F300 X-7.300 Y-2.925 E83.04028
G1 X-7.300 Y-7.300 E83.18579
G1 X7.300 Y-7.300 E83.67139
G1 X7.300 Y7.300 E84.15699
G1 X1.864 Y7.300 E84.33779
G1 X1.860 Y6.700 E84.35775
G1 X6.700 Y6.700 E84.51873
G1 X6.700 Y-6.700 E84.96441
G1 X-6.700 Y-6.700 E85.41010
G1 X-6.700 Y-2.926 E85.53562
G0 F4800 X-7.000 Y-3.136
G0 X-7.041 Y-7.041
G0 X-1.542 Y-7.000
G0 X-1.542 Y-7.199
;TYPE:FILL
G1 F420 X-1.142 Y-6.799 E85.55444
G0 F4800 X-1.142 Y-7.000
G0 X1.142 Y-7.000
G0 X1.142 Y-6.799
G1 F420 X1.542 Y-7.199 E85.57325
G0 F4800 X1.542 Y-7.000
G0 X7.041 Y-7.041
G0 X7.000 Y-1.542
G0 X7.199 Y-1.542
G1 F420 X6.799 Y-1.142 E85.59206
G0 F4800 X7.000 Y-1.142
G0 X7.000 Y1.142
G0 X6.799 Y1.142
G1 F420 X7.199 Y1.401 E85.61085
G1 X6.999 Y0.776 E85.62967
G1 X6.999 Y0.211 E85.64846
G1 X6.999 Y-0.353 E85.66722
G1 X6.999 Y-0.919 E85.68605
G1 X6.999 Y-1.485 E85.70483
G1 X6.999 Y-2.051 E85.72360
G1 X6.903 Y-2.713 E85.74240
G1 X7.199 Y-2.699 E85.75226
G0 F4800 X7.000 Y-2.699
G0 X7.000 Y1.425
G0 X6.799 Y1.425
;TYPE:SKIN
G1 F420 X6.999 Y1.908 E85.77104
G1 X6.999 Y2.473 E85.78983
G1 X7.134 Y2.892 E85.80447
G1 F3900 E81.30447
G0 F4800 X-6.700 Y2.312
;TYPE:WALL-OUTER
G1 F3900 E85.80447
G1 F300 X-7.300 Y2.311 E85.82443
G1 X-7.300 Y-2.312 E85.97819
G1 X-6.700 Y-2.311 E85.99815
G1 X-6.700 Y2.312 E86.15191
G0 F4800 X-7.199 Y1.542
;TYPE:FILL
G1 F420 X-6.799 Y1.142 E86.17072
G0 F4800 X-7.000 Y1.142
G0 X-7.000 Y-1.141
G0 X-6.798 Y-1.141
G1 F420 X-7.199 Y-1.542 E86.18958
G1 F3900 E81.68958
G0 F4800 X-7.300 Y2.926
;TYPE:WALL-OUTER
G1 F3900 E86.18958
G1 F300 X-6.700 Y2.925 E86.20954
G1 X-6.700 Y6.700 E86.33510
G1 X-1.864 Y6.700 E86.49594
G1 X-1.859 Y7.300 E86.51590
G1 X-7.300 Y7.300 E86.69687
G1 X-7.300 Y2.926 E86.84235
;LAYER:7
M117 Nb = 8 / 450
M106 S255
G1 F3900 E82.34235
G0 F4800 X-7.300 Y-2.860 Z1.660
;TYPE:WALL-OUTER
G1 F3900 E86.84235
G1 F240 X-7.300 Y-7.300 E86.99002
G1 X7.300 Y-7.300 E87.47562
G1 X7.300 Y-2.215 E87.64475
G1 X6.700 Y-2.215 E87.66470
G1 X6.700 Y-6.700 E87.81388
G1 X-6.700 Y-6.700 E88.25956
G1 X-6.700 Y-2.861 E88.38725
G1 X-7.300 Y-2.860 E88.40720
G0 F4800 X-7.000 Y-3.070
G0 X-7.041 Y-7.041
G0 X-1.542 Y-7.000
G0 X-1.542 Y-7.199
;TYPE:FILL
G1 F360 X-1.142 Y-6.799 E88.42602
G0 F4800 X-1.142 Y-7.000
G0 X1.142 Y-7.000
G0 X1.142 Y-6.799
G1 F360 X1.542 Y-7.199 E88.44483
G1 F3900 E83.94483
G0 F4800 X-6.700 Y-2.036
;TYPE:WALL-OUTER
G1 F3900 E88.44483
G1 F240 X-6.700 Y2.037 E88.58030
G1 X-7.300 Y2.036 E88.60026
G1 X-7.300 Y-2.037 E88.73573
G1 X-6.700 Y-2.036 E88.75568
G0 F4800 X-7.199 Y-1.542
;TYPE:FILL
G1 F360 X-6.798 Y-1.141 E88.77454
G0 F4800 X-7.000 Y-1.141
G0 X-7.000 Y1.142
G0 X-6.799 Y1.142
G1 F360 X-7.199 Y1.542 E88.79336
G0 F4800 X-7.300 Y2.861
;TYPE:WALL-OUTER
G1 F240 X-6.700 Y2.860 E88.81332
G1 X-6.700 Y6.700 E88.94103
G1 X-2.239 Y6.700 E89.08941
G1 X-2.239 Y7.300 E89.10936
G1 X-7.300 Y7.300 E89.27769
G1 X-7.300 Y2.861 E89.42533
G1 F3900 E84.92533
G0 F4800 X2.239 Y6.700
G1 F3900 E89.42533
G1 F240 X6.700 Y6.700 E89.57371
G1 X6.700 Y2.215 E89.72288
G1 X7.300 Y2.215 E89.74284
G1 X7.300 Y7.300 E89.91196
G1 X2.239 Y7.300 E90.08029
G1 X2.239 Y6.700 E90.10025
;LAYER:8
M117 Nb = 9 / 450
G1 F3900 E85.60025
G0 F4800 X6.700 Y-2.330 Z1.860
;TYPE:WALL-OUTER
G1 F3900 E90.10025
G1 F240 X6.700 Y-6.700 E90.24560
G1 X-6.700 Y-6.700 E90.69128
G1 X-6.700 Y-2.796 E90.82113
G1 X-7.300 Y-2.795 E90.84109
G1 X-7.300 Y-7.300 E90.99092
G1 X7.300 Y-7.300 E91.47652
G1 X7.300 Y-2.329 E91.64186
G1 X6.700 Y-2.330 E91.66181
G0 F4800 X6.910 Y-2.629
G0 X7.041 Y-7.041
G0 X1.542 Y-7.000
G0 X1.542 Y-7.199
;TYPE:FILL
G1 F360 X1.142 Y-6.799 E91.68063
G0 F4800 X1.142 Y-7.000
G0 X-1.142 Y-7.000
G0 X-1.142 Y-6.799
G1 F360 X-1.542 Y-7.199 E91.69944
G1 F3900 E87.19944
G0 F4800 X-6.700 Y-1.761
;TYPE:WALL-OUTER
G1 F3900 E91.69944
G1 F240 X-6.700 Y1.761 E91.81658
G1 X-7.300 Y1.761 E91.83654
G1 X-7.300 Y-1.761 E91.95368
G1 X-6.700 Y-1.761 E91.97364
G0 F4800 X-7.199 Y-1.542
;TYPE:FILL
G1 F360 X-6.798 Y-1.141 E91.99250
G0 F4800 X-7.000 Y-1.141
G0 X-7.000 Y1.141
G0 X-6.798 Y1.141
G1 F360 X-7.199 Y1.542 E92.01136
G0 F4800 X-7.300 Y2.796
;TYPE:WALL-OUTER
G1 F240 X-6.700 Y2.795 E92.03132
G1 X-6.700 Y6.700 E92.16120
G1 X-2.545 Y6.700 E92.29940
G1 X-2.545 Y7.300 E92.31935
G1 X-7.300 Y7.300 E92.47750
G1 X-7.300 Y2.796 E92.62731
G1 F3900 E88.12731
G0 F4800 X2.545 Y6.700
G1 F3900 E92.62731
G1 F240 X6.700 Y6.700 E92.76550
G1 X6.700 Y2.329 E92.91088
G1 X7.300 Y2.330 E92.93084
G1 X7.300 Y7.300 E93.09614
G1 X2.545 Y7.300 E93.25429
G1 X2.545 Y6.700 E93.27425
;LAYER:9
M117 Nb = 10 / 450
G1 F3900 E88.77425
G0 F4800 X6.700 Y-2.446 Z2.060
;TYPE:WALL-OUTER
G1 F3900 E93.27425
G1 F240 X6.700 Y-6.700 E93.41574
G1 X-6.700 Y-6.700 E93.86142
G1 X-6.700 Y-2.731 E93.99343
G1 X-7.300 Y-2.730 E94.01339
G1 X-7.300 Y-7.300 E94.16539
G1 X7.300 Y-7.300 E94.65099
G1 X7.300 Y-2.445 E94.81246
G1 X6.700 Y-2.446 E94.83242
G0 F4800 X6.910 Y-2.745
G0 X7.041 Y-7.041
G0 X1.542 Y-7.000
G0 X1.542 Y-7.199
;TYPE:FILL
G1 F360 X1.142 Y-6.799 E94.85124
G0 F4800 X1.142 Y-7.000
G0 X-1.142 Y-7.000
G0 X-1.142 Y-6.799
G1 F360 X-1.542 Y-7.199 E94.87005
G1 F3900 E90.37005
G0 F4800 X-6.700 Y-1.485
;TYPE:WALL-OUTER
G1 F3900 E94.87005
G1 F240 X-6.700 Y1.485 E94.96883
G1 X-7.300 Y1.485 E94.98879
G1 X-7.300 Y-1.485 E95.08757
G1 X-6.700 Y-1.485 E95.10753
G0 F4800 X-7.042 Y-1.385
;TYPE:FILL
G1 F360 X-6.798 Y-1.141 E95.11900
G0 F4800 X-7.000 Y-1.141
G0 X-7.000 Y1.141
G0 X-6.798 Y1.141
G1 F360 X-7.120 Y1.322 E95.13046
G1 X-6.998 Y0.776 E95.14930
G1 X-6.998 Y0.210 E95.16813
G1 X-6.998 Y-0.354 E95.18689
G1 X-6.998 Y-0.920 E95.20571
G1 X-6.817 Y-1.385 E95.22231
G1 F3900 E90.72231
G0 F4800 X-6.700 Y2.730
;TYPE:WALL-OUTER
G1 F3900 E95.22231
G1 F240 X-6.700 Y6.700 E95.35435
G1 X-2.798 Y6.700 E95.48413
G1 X-2.797 Y7.300 E95.50409
G1 X-7.300 Y7.300 E95.65386
G1 X-7.300 Y2.731 E95.80582
G1 X-6.700 Y2.730 E95.82578
G1 F3900 E91.32578
G0 F4800 X2.797 Y6.700
G1 F3900 E95.82578
G1 F240 X6.700 Y6.700 E95.95559
G1 X6.700 Y2.445 E96.09712
G1 X7.300 Y2.446 E96.11707
G1 X7.300 Y7.300 E96.27852
G1 X2.798 Y7.300 E96.42825
G1 X2.797 Y6.700 E96.44821
;LAYER:10
M117 Nb = 11 / 450
G1 F3900 E91.94821
G0 F4800 X6.700 Y-2.561 Z2.260
;TYPE:WALL-OUTER
G1 F3900 E96.44821
G1 F240 X6.700 Y-6.700 E96.58587
G1 X-6.700 Y-6.700 E97.03156
G1 X-6.700 Y-2.666 E97.16573
G1 X-7.300 Y-2.665 E97.18569
G1 X-7.300 Y-7.300 E97.33985
G1 X-6.545 Y-7.300 E97.36496
G1 X-6.543 Y-7.100 E97.37161
G1 X-2.362 Y-7.100 E97.51067
G1 X-2.362 Y-7.300 E97.51732
G1 X-2.096 Y-7.300 E97.52617
G1 X-2.094 Y-7.100 E97.53282
G1 X2.086 Y-7.100 E97.67185
G1 X2.086 Y-7.300 E97.67850
G1 X3.585 Y-7.300 E97.72836
G1 X3.585 Y-7.100 E97.73501
G1 X5.413 Y-7.100 E97.79581
G1 X5.414 Y-7.300 E97.80246
G1 X7.300 Y-7.300 E97.86519
G1 X7.300 Y-2.560 E98.02284
G1 X6.700 Y-2.561 E98.04280
G1 F3900 E93.54280
G0 F4800 X-6.700 Y-1.210
G1 F3900 E98.04280
G1 F240 X-6.700 Y1.210 E98.12329
G1 X-7.300 Y1.210 E98.14325
G1 X-7.300 Y-1.210 E98.22374
G1 X-6.700 Y-1.210 E98.24369
G0 F4800 X-7.049 Y-1.110
;TYPE:SKIN
G1 F360 X-6.999 Y-0.776 E98.25549
G1 X-6.999 Y-0.211 E98.27428
G1 X-6.999 Y0.353 E98.29304
G1 X-6.945 Y0.973 E98.31182
G1 X-7.199 Y1.002 E98.32032
G0 F4800 X-7.090 Y2.966
G0 X-7.000 Y2.876
G0 X-7.300 Y2.666
;TYPE:WALL-OUTER
G1 F240 X-6.700 Y2.665 E98.34028
G1 X-6.700 Y6.700 E98.47449
G1 X-3.012 Y6.700 E98.59715
G1 X-3.011 Y7.300 E98.61711
G1 X-7.300 Y7.300 E98.75976
G1 X-7.300 Y2.666 E98.91389
G1 F3900 E94.41389
G0 F4800 X3.011 Y6.700
G1 F3900 E98.91389
G1 F240 X6.700 Y6.700 E99.03658
G1 X6.700 Y2.560 E99.17428
G1 X7.300 Y2.561 E99.19423
G1 X7.300 Y7.300 E99.35185
G1 X3.012 Y7.300 E99.49447
G1 X3.011 Y6.700 E99.51443
;LAYER:11
M117 Nb = 12 / 450
G1 F3900 E95.01443
G0 F4800 X6.700 Y-2.677 Z2.460
;TYPE:WALL-OUTER
G1 F3900 E99.51443
G1 F240 X6.700 Y-6.700 E99.64824
G1 X-6.700 Y-6.700 E100.09392
G1 X-6.700 Y-2.601 E100.23025
G1 X-7.300 Y-2.600 E100.25021
G1 X-7.300 Y-7.300 E100.40653
G1 X-6.531 Y-7.300 E100.43211
G1 X-6.532 Y-7.110 E100.43843
G1 X-2.362 Y-7.099 E100.57713
G1 X-2.362 Y-7.300 E100.58381
G1 X-2.082 Y-7.300 E100.59312
G1 X-2.083 Y-7.110 E100.59944
G1 X2.086 Y-7.099 E100.73811
G1 X2.086 Y-7.300 E100.74479
G1 X3.278 Y-7.300 E100.78444
G1 X3.278 Y-7.100 E100.79109
G1 X5.740 Y-7.100 E100.87297
G1 X5.746 Y-7.300 E100.87963
G1 X7.300 Y-7.300 E100.93132
G1 X7.300 Y-2.676 E101.08511
G1 X6.700 Y-2.677 E101.10507
G1 F3900 E96.60507
G0 F4800 X-6.700 Y-0.935
G1 F3900 E101.10507
G1 F240 X-6.700 Y0.935 E101.16726
G1 X-7.300 Y0.935 E101.18722
G1 X-7.300 Y-0.935 E101.24942
G1 X-6.700 Y-0.935 E101.26937
G1 F3900 E96.76937
G0 F4800 X-6.700 Y2.600
G1 F3900 E101.26937
G1 F240 X-6.700 Y6.700 E101.40574
G1 X-3.200 Y6.700 E101.52215
G1 X-3.199 Y7.300 E101.54211
G1 X-7.300 Y7.300 E101.67851
G1 X-7.300 Y2.601 E101.83479
G1 X-6.700 Y2.600 E101.85475
G1 F3900 E97.35475
G0 F4800 X3.199 Y6.700
G1 F3900 E101.85475
G1 F240 X6.700 Y6.700 E101.97119
G1 X6.700 Y2.676 E102.10503
G1 X7.300 Y2.677 E102.12499
G1 X7.300 Y7.300 E102.27875
G1 X3.200 Y7.300 E102.41512
G1 X3.199 Y6.700 E102.43507
;LAYER:12
M117 Nb = 13 / 450
G1 F3900 E97.93507
G0 F4800 X6.700 Y-2.792 Z2.660
;TYPE:WALL-OUTER
G1 F3900 E102.43507
G1 F240 X6.700 Y-6.700 E102.56505
G1 X-6.700 Y-6.700 E103.01074
G1 X-6.700 Y-2.536 E103.14924
G1 X-7.300 Y-2.535 E103.16919
G1 X-7.300 Y-7.300 E103.32768
G1 X-6.478 Y-7.300 E103.35502
G1 X-6.475 Y-7.100 E103.36167
G1 X-2.362 Y-7.100 E103.49847
G1 X-2.362 Y-7.300 E103.50512
G1 X-2.029 Y-7.300 E103.51620
G1 X-2.028 Y-7.100 E103.52285
G1 X2.086 Y-7.100 E103.65968
G1 X2.086 Y-7.300 E103.66633
G1 X3.063 Y-7.300 E103.69883
G1 X3.058 Y-7.100 E103.70548
G1 X5.945 Y-7.100 E103.80150
G1 X5.946 Y-7.300 E103.80815
G1 X7.300 Y-7.300 E103.85319
G1 X7.300 Y-2.792 E104.00313
G1 X6.700 Y-2.792 E104.02308
G1 F3900 E99.52308
G0 F4800 X-6.700 Y-0.660
G1 F3900 E104.02308
G1 F240 X-6.700 Y0.660 E104.06699
G1 X-7.300 Y0.660 E104.08694
G1 X-7.300 Y-0.660 E104.13084
G1 X-6.700 Y-0.660 E104.15080
G1 F3900 E99.65080
G0 F4800 X-6.700 Y2.535
G1 F3900 E104.15080
G1 F240 X-6.700 Y6.700 E104.28933
G1 X-3.368 Y6.700 E104.40015
G1 X-3.368 Y7.300 E104.42011
G1 X-7.300 Y7.300 E104.55089
G1 X-7.300 Y2.536 E104.70934
G1 X-6.700 Y2.535 E104.72929
G1 F3900 E100.22929
G0 F4800 X3.368 Y6.700
G1 F3900 E104.72929
G1 F240 X6.700 Y6.700 E104.84012
G1 X6.700 Y2.792 E104.97010
G1 X7.300 Y2.792 E104.99005
G1 X7.300 Y7.300 E105.13999
G1 X3.368 Y7.300 E105.27077
G1 X3.368 Y6.700 E105.29073
;LAYER:13
M117 Nb = 14 / 450
G1 F3900 E100.79073
G0 F4800 X6.700 Y-2.908 Z2.860
;TYPE:WALL-OUTER
G1 F3900 E105.29073
G1 F240 X6.700 Y-6.700 E105.41685
G1 X-6.700 Y-6.700 E105.86253
G1 X-6.700 Y-2.471 E106.00319
G1 X-7.300 Y-2.470 E106.02315
G1 X-7.300 Y-7.300 E106.18379
G1 X-6.394 Y-7.300 E106.21393
G1 X-6.393 Y-7.100 E106.22058
G1 X-2.362 Y-7.100 E106.35465
G1 X-2.362 Y-7.300 E106.36130
G1 X-1.945 Y-7.300 E106.37517
G1 X-1.944 Y-7.100 E106.38182
G1 X2.086 Y-7.100 E106.51586
G1 X2.086 Y-7.300 E106.52251
G1 X2.929 Y-7.300 E106.55055
G1 X2.928 Y-7.100 E106.55720
G1 X4.191 Y-7.100 E106.59921
G1 X4.193 Y-7.300 E106.60586
G1 X4.822 Y-7.300 E106.62679
G1 X4.823 Y-7.100 E106.63344
G1 X6.103 Y-7.100 E106.67601
G1 X6.104 Y-7.300 E106.68266
G1 X7.300 Y-7.300 E106.72244
G1 X7.300 Y-2.908 E106.86852
G1 X6.700 Y-2.908 E106.88848
G1 F3900 E102.38848
G0 F4800 X-6.711 Y-0.385
G1 F3900 E106.88848
G1 F240 X-6.700 Y-0.385 E106.88884
G1 X-6.700 Y0.384 E106.91442
G1 X-7.289 Y0.385 E106.93401
G1 X-7.300 Y0.385 E106.93438
G1 X-7.300 Y-0.384 E106.95995
G1 X-6.711 Y-0.385 E106.97954
G1 F3900 E102.47954
G0 F4800 X-6.700 Y2.470
G1 F3900 E106.97954
G1 F240 X-6.700 Y6.700 E107.12023
G1 X-3.511 Y6.700 E107.22630
G1 X-3.510 Y7.300 E107.24626
G1 X-7.300 Y7.300 E107.37231
G1 X-7.300 Y2.471 E107.53292
G1 X-6.700 Y2.470 E107.55288
G1 F3900 E103.05288
G0 F4800 X3.510 Y6.700
G1 F3900 E107.55288
G1 F240 X6.700 Y6.700 E107.65898
G1 X6.700 Y2.908 E107.78510
G1 X7.300 Y2.908 E107.80506
G1 X7.300 Y7.300 E107.95114
G1 X3.511 Y7.300 E108.07716
G1 X3.510 Y6.700 E108.09712
;LAYER:14
M117 Nb = 15 / 450
G1 F3900 E103.59712
G0 F4800 X6.700 Y-3.023 Z3.060
;TYPE:WALL-OUTER
G1 F3900 E108.09712
G1 F240 X6.700 Y-6.700 E108.21941
G1 X-6.700 Y-6.700 E108.66510
G1 X-6.700 Y-2.406 E108.80792
G1 X-7.300 Y-2.405 E108.82788
G1 X-7.300 Y-7.300 E108.99068
G1 X-6.291 Y-7.300 E109.02424
G1 X-6.290 Y-7.100 E109.03089
G1 X-5.056 Y-7.100 E109.07194
G1 X-5.055 Y-7.300 E109.07859
G1 X-1.841 Y-7.300 E109.18549
G1 X-1.837 Y-7.100 E109.19214
G1 X-0.607 Y-7.100 E109.23305
G1 X-0.606 Y-7.300 E109.23970
G1 X2.826 Y-7.300 E109.35385
G1 X2.825 Y-7.100 E109.36050
G1 X3.981 Y-7.100 E109.39895
G1 X3.983 Y-7.300 E109.40561
G1 X5.031 Y-7.300 E109.44046
G1 X5.032 Y-7.100 E109.44711
G1 X6.217 Y-7.100 E109.48653
G1 X6.218 Y-7.300 E109.49318
G1 X7.300 Y-7.300 E109.52917
G1 X7.300 Y-3.023 E109.67142
G1 X6.700 Y-3.023 E109.69138
G1 F3900 E105.19138
G0 F4800 X1.542 Y-7.199
;TYPE:FILL
G1 F3900 E109.69138
G1 F360 X1.142 Y-6.799 E109.71019
G0 F4800 X-6.700 Y-0.110
;TYPE:WALL-OUTER
G1 F240 X-6.700 Y0.109 E109.71748
G1 X-7.300 Y0.110 E109.73743
G1 X-7.300 Y-0.109 E109.74472
G1 X-6.700 Y-0.110 E109.76467
G1 F3900 E105.26467
G0 F4800 X-6.700 Y2.405
G1 F3900 E109.76467
G1 F240 X-6.700 Y6.700 E109.90752
G1 X-3.636 Y6.700 E110.00943
G1 X-3.635 Y7.300 E110.02939
G1 X-7.300 Y7.300 E110.15129
G1 X-7.300 Y2.406 E110.31406
G1 X-6.700 Y2.405 E110.33402
G1 F3900 E105.83402
G0 F4800 X3.635 Y6.700
G1 F3900 E110.33402
G1 F240 X6.700 Y6.700 E110.43596
G1 X6.700 Y3.023 E110.55826
G1 X7.300 Y3.023 E110.57821
G1 X7.300 Y7.300 E110.72047
G1 X3.636 Y7.300 E110.84233
G1 X3.635 Y6.700 E110.86229
;LAYER:15
M117 Nb = 16 / 450
G1 F3900 E106.36229
G0 F4800 X6.700 Y-3.138 Z3.260
;TYPE:WALL-OUTER
G1 F3900 E110.86229
G1 F240 X6.700 Y-6.700 E110.98076
G1 X-6.700 Y-6.700 E111.42645
G1 X-6.700 Y-2.341 E111.57143
G1 X-7.300 Y-2.340 E111.59139
G1 X-7.300 Y-7.300 E111.75636
G1 X-6.160 Y-7.300 E111.79427
G1 X-6.159 Y-7.100 E111.80092
G1 X-4.887 Y-7.100 E111.84323
G1 X-4.886 Y-7.300 E111.84988
G1 X-1.711 Y-7.300 E111.95548
G1 X-1.705 Y-7.100 E111.96214
G1 X-0.438 Y-7.100 E112.00428
G1 X-0.437 Y-7.300 E112.01093
G1 X2.730 Y-7.300 E112.11627
G1 X2.730 Y-7.100 E112.12292
G1 X3.850 Y-7.100 E112.16017
G1 X3.855 Y-7.300 E112.16682
G1 X5.159 Y-7.300 E112.21020
G1 X5.160 Y-7.100 E112.21685
G1 X6.304 Y-7.100 E112.25490
G1 X6.305 Y-7.300 E112.26155
G1 X7.300 Y-7.300 E112.29464
G1 X7.300 Y-3.138 E112.43307
G1 X6.700 Y-3.138 E112.45303
G1 F3900 E107.95303
G0 F4800 X1.542 Y-7.199
;TYPE:FILL
G1 F3900 E112.45303
G1 F360 X1.141 Y-6.798 E112.47189
G0 F4800 X-6.700 Y2.340
;TYPE:WALL-OUTER
G1 F240 X-6.700 Y6.700 E112.61690
G1 X-3.751 Y6.700 E112.71499
G1 X-3.750 Y7.300 E112.73494
G1 X-7.300 Y7.300 E112.85302
G1 X-7.300 Y2.341 E113.01795
G1 X-6.700 Y2.340 E113.03791
G1 F3900 E108.53791
G0 F4800 X3.750 Y6.700
G1 F3900 E113.03791
G1 F240 X6.700 Y6.700 E113.13603
G1 X6.700 Y3.138 E113.25450
G1 X7.300 Y3.138 E113.27446
G1 X7.300 Y7.300 E113.41289
G1 X3.751 Y7.300 E113.53093
G1 X3.750 Y6.700 E113.55088
;LAYER:16
M117 Nb = 17 / 450
G1 F3900 E109.05088
G0 F4800 X6.700 Y-3.254 Z3.460
;TYPE:WALL-OUTER
G1 F3900 E113.55088
G1 F240 X6.700 Y-6.700 E113.66550
G1 X-6.700 Y-6.700 E114.11118
G1 X-6.700 Y-2.276 E114.25832
G1 X-7.300 Y-2.275 E114.27828
G1 X-7.300 Y-7.300 E114.44541
G1 X-6.007 Y-7.300 E114.48842
G1 X-6.006 Y-7.100 E114.49507
G1 X-4.679 Y-7.100 E114.53921
G1 X-4.678 Y-7.300 E114.54586
G1 X-1.558 Y-7.300 E114.64963
G1 X-1.548 Y-7.100 E114.65629
G1 X-0.230 Y-7.100 E114.70013
G1 X-0.229 Y-7.300 E114.70678
G1 X2.650 Y-7.300 E114.80254
G1 X2.646 Y-7.100 E114.80919
G1 X3.776 Y-7.100 E114.84677
G1 X3.778 Y-7.300 E114.85343
G1 X5.236 Y-7.300 E114.90192
G1 X5.239 Y-7.100 E114.90857
G1 X6.378 Y-7.100 E114.94645
G1 X6.379 Y-7.300 E114.95311
G1 X7.300 Y-7.300 E114.98374
G1 X7.300 Y-3.254 E115.11831
G1 X6.700 Y-3.254 E115.13827
G1 F3900 E110.63827
G0 F4800 X1.542 Y-7.199
;TYPE:FILL
G1 F3900 E115.13827
G1 F360 X1.141 Y-6.798 E115.15713
G0 F4800 X-6.700 Y2.275
;TYPE:WALL-OUTER
G1 F240 X-6.700 Y6.700 E115.30430
G1 X-3.844 Y6.700 E115.39929
G1 X-3.843 Y7.300 E115.41925
G1 X-7.300 Y7.300 E115.53423
G1 X-7.300 Y2.276 E115.70133
G1 X-6.700 Y2.275 E115.72129
G1 F3900 E111.22129
G0 F4800 X3.843 Y6.700
G1 F3900 E115.72129
G1 F240 X6.700 Y6.700 E115.81631
G1 X6.700 Y3.254 E115.93092
G1 X7.300 Y3.254 E115.95088
G1 X7.300 Y7.300 E116.08545
G1 X3.844 Y7.300 E116.20040
G1 X3.843 Y6.700 E116.22035
;LAYER:17
M117 Nb = 18 / 450
G1 F3900 E111.72035
G0 F4800 X6.700 Y-3.369 Z3.660
;TYPE:WALL-OUTER
G1 F3900 E116.22035
G1 F240 X6.700 Y-6.700 E116.33114
G1 X-6.700 Y-6.700 E116.77683
G1 X-6.700 Y-2.211 E116.92613
G1 X-7.300 Y-2.210 E116.94609
G1 X-7.300 Y-7.300 E117.11538
G1 X-5.820 Y-7.300 E117.16461
G1 X-5.819 Y-7.100 E117.17126
G1 X-4.457 Y-7.100 E117.21656
G1 X-4.456 Y-7.300 E117.22321
G1 X-1.371 Y-7.300 E117.32582
G1 X-1.370 Y-7.100 E117.33247
G1 X-0.008 Y-7.100 E117.37777
G1 X-0.007 Y-7.300 E117.38443
G1 X2.584 Y-7.300 E117.47060
G1 X2.582 Y-7.100 E117.47726
G1 X3.700 Y-7.100 E117.51444
G1 X3.705 Y-7.300 E117.52109
G1 X5.310 Y-7.300 E117.57448
G1 X5.311 Y-7.100 E117.58113
G1 X6.426 Y-7.100 E117.61821
G1 X6.427 Y-7.300 E117.62487
G1 X7.300 Y-7.300 E117.65390
G1 X7.300 Y-3.369 E117.78465
G1 X6.700 Y-3.369 E117.80460
G1 F3900 E113.30460
G0 F4800 X1.542 Y-7.199
;TYPE:FILL
G1 F3900 E117.80460
G1 F360 X1.141 Y-6.798 E117.82347
G0 F4800 X-1.469 Y-7.126
G1 F360 X-1.542 Y-7.199 E117.82690
G1 F3900 E113.32690
G0 F4800 X-6.700 Y2.210
;TYPE:WALL-OUTER
G1 F3900 E117.82690
G1 F240 X-6.700 Y6.700 E117.97624
G1 X-3.930 Y6.700 E118.06837
G1 X-3.930 Y7.300 E118.08832
G1 X-7.300 Y7.300 E118.20041
G1 X-7.300 Y2.211 E118.36967
G1 X-6.700 Y2.210 E118.38963
G1 F3900 E113.88963
G0 F4800 X3.930 Y6.700
G1 F3900 E118.38963
G1 F240 X6.700 Y6.700 E118.48176
G1 X6.700 Y3.369 E118.59255
G1 X7.300 Y3.369 E118.61250
G1 X7.300 Y7.300 E118.74325
G1 X3.930 Y7.300 E118.85534
G1 X3.930 Y6.700 E118.87529
;LAYER:18
M117 Nb = 19 / 450
G1 F3900 E114.37529
G0 F4800 X6.700 Y-3.485 Z3.860
;TYPE:WALL-OUTER
G1 F3900 E118.87529
G1 F240 X6.700 Y-6.700 E118.98222
G1 X-6.700 Y-6.700 E119.42791
G1 X-6.700 Y-2.146 E119.57938
G1 X-7.300 Y-2.145 E119.59933
G1 X-7.300 Y-7.300 E119.77079
G1 X-5.622 Y-7.300 E119.82660
G1 X-5.621 Y-7.100 E119.83325
G1 X-4.223 Y-7.100 E119.87975
G1 X-4.222 Y-7.300 E119.88640
G1 X-1.173 Y-7.300 E119.98781
G1 X-1.172 Y-7.100 E119.99446
G1 X0.226 Y-7.100 E120.04096
G1 X0.227 Y-7.300 E120.04761
G1 X2.531 Y-7.300 E120.12424
G1 X2.530 Y-7.100 E120.13090
G1 X3.632 Y-7.100 E120.16755
G1 X3.648 Y-7.300 E120.17422
G1 X5.367 Y-7.300 E120.23140
G1 X5.368 Y-7.100 E120.23805
G1 X6.472 Y-7.100 E120.27477
G1 X6.473 Y-7.300 E120.28142
G1 X7.300 Y-7.300 E120.30893
G1 X7.300 Y-3.485 E120.43581
G1 X6.700 Y-3.485 E120.45577
G1 F3900 E115.95577
G0 F4800 X1.542 Y-7.199
;TYPE:FILL
G1 F3900 E120.45577
G1 F360 X1.141 Y-6.798 E120.47463
G0 F4800 X-1.269 Y-6.926
G1 F360 X-1.542 Y-7.199 E120.48747
G1 F3900 E115.98747
G0 F4800 X-6.700 Y2.145
;TYPE:WALL-OUTER
G1 F3900 E120.48747
G1 F240 X-6.700 Y6.700 E120.63897
G1 X-3.999 Y6.700 E120.72881
G1 X-3.998 Y7.300 E120.74876
G1 X-7.300 Y7.300 E120.85859
G1 X-7.300 Y2.146 E121.03001
G1 X-6.700 Y2.145 E121.04997
G1 F3900 E116.54997
G0 F4800 X3.998 Y6.700
G1 F3900 E121.04997
G1 F240 X6.700 Y6.700 E121.13984
G1 X6.700 Y3.485 E121.24677
G1 X7.300 Y3.485 E121.26672
G1 X7.300 Y7.300 E121.39361
G1 X3.999 Y7.300 E121.50340
G1 X3.998 Y6.700 E121.52336
;LAYER:19
M117 Nb = 20 / 450
G1 F3900 E117.02336
G0 F4800 X6.700 Y-3.600 Z4.060
;TYPE:WALL-OUTER
G1 F3900 E121.52336
G1 F240 X6.700 Y-6.700 E121.62647
G1 X-6.700 Y-6.700 E122.07215
G1 X-6.700 Y-2.081 E122.22578
G1 X-7.300 Y-2.081 E122.24574
G1 X-7.300 Y-7.300 E122.41932
G1 X-5.404 Y-7.300 E122.48238
G1 X-5.403 Y-7.100 E122.48903
G1 X-3.985 Y-7.100 E122.53620
G1 X-3.984 Y-7.300 E122.54285
G1 X-0.955 Y-7.300 E122.64359
G1 X-0.954 Y-7.100 E122.65025
G1 X0.463 Y-7.100 E122.69738
G1 X0.464 Y-7.300 E122.70403
G1 X2.496 Y-7.300 E122.77161
G1 X2.495 Y-7.100 E122.77826
G1 X3.607 Y-7.100 E122.81525
G1 X3.608 Y-7.300 E122.82190
G1 X5.407 Y-7.300 E122.88174
G1 X5.419 Y-7.100 E122.88840
G1 X6.510 Y-7.100 E122.92469
G1 X6.511 Y-7.300 E122.93134
G1 X7.300 Y-7.300 E122.95758
G1 X7.300 Y-3.600 E123.08064
G1 X6.700 Y-3.600 E123.10060
G1 F3900 E118.60060
G0 F4800 X1.542 Y-7.199
;TYPE:FILL
G1 F3900 E123.10060
G1 F360 X1.142 Y-6.799 E123.11942
G0 F4800 X-1.142 Y-6.799
G1 F360 X-1.542 Y-7.199 E123.13823
G1 F3900 E118.63823
G0 F4800 X-6.700 Y2.081
;TYPE:WALL-OUTER
G1 F3900 E123.13823
G1 F240 X-6.700 Y6.700 E123.29186
G1 X-4.059 Y6.700 E123.37970
G1 X-4.058 Y7.300 E123.39965
G1 X-7.300 Y7.300 E123.50748
G1 X-7.300 Y2.081 E123.68107
G1 X-6.700 Y2.081 E123.70102
G1 F3900 E119.20102
G0 F4800 X4.058 Y6.700
G1 F3900 E123.70102
G1 F240 X6.700 Y6.700 E123.78890
G1 X6.700 Y3.600 E123.89200
G1 X7.300 Y3.600 E123.91196
G1 X7.300 Y7.300 E124.03502
G1 X4.059 Y7.300 E124.14282
G1 X4.058 Y6.700 E124.16278
;LAYER:20
M117 Nb = 21 / 450
G1 F3900 E119.66278
G0 F4800 X6.744 Y-3.715 Z4.260
;TYPE:WALL-OUTER
G1 F3900 E124.16278
G1 F240 X6.700 Y-3.715 E124.16424
G1 X6.700 Y-6.700 E124.26352
G1 X-6.700 Y-6.700 E124.70921
G1 X-6.700 Y-2.016 E124.86500
G1 X-7.300 Y-2.016 E124.88495
G1 X-7.300 Y-7.300 E125.06070
G1 X-5.170 Y-7.300 E125.13154
G1 X-5.169 Y-7.100 E125.13820
G1 X-3.752 Y-7.100 E125.18533
G1 X-3.751 Y-7.300 E125.19198
G1 X-0.721 Y-7.300 E125.29276
G1 X-0.720 Y-7.100 E125.29941
G1 X0.696 Y-7.100 E125.34650
G1 X0.697 Y-7.300 E125.35316
G1 X2.473 Y-7.300 E125.41223
G1 X2.472 Y-7.100 E125.41888
G1 X3.582 Y-7.100 E125.45580
G1 X3.583 Y-7.300 E125.46245
G1 X5.432 Y-7.300 E125.52395
G1 X5.436 Y-7.100 E125.53060
G1 X6.538 Y-7.100 E125.56725
G1 X6.538 Y-7.300 E125.57390
G1 X7.300 Y-7.300 E125.59925
G1 X7.300 Y-3.716 E125.71845
G1 X6.744 Y-3.715 E125.73695
G1 F3900 E121.23695
G0 F4800 X1.542 Y-7.199
;TYPE:FILL
G1 F3900 E125.73695
G1 F360 X1.141 Y-6.798 E125.75581
G0 F4800 X-1.142 Y-6.799
G1 F360 X-1.542 Y-7.199 E125.77462
G1 F3900 E121.27462
G0 F4800 X-6.700 Y2.016
;TYPE:WALL-OUTER
G1 F3900 E125.77462
G1 F240 X-6.700 Y6.700 E125.93041
G1 X-4.107 Y6.700 E126.01666
G1 X-4.107 Y7.300 E126.03661
G1 X-7.300 Y7.300 E126.14281
G1 X-7.300 Y2.016 E126.31856
G1 X-6.700 Y2.016 E126.33852
G1 F3900 E121.83852
G0 F4800 X4.107 Y6.700
G1 F3900 E126.33852
G1 F240 X6.700 Y6.700 E126.42476
G1 X6.700 Y3.716 E126.52401
G1 X7.256 Y3.715 E126.54250
G1 X7.300 Y3.715 E126.54396
G1 X7.300 Y7.300 E126.66320
G1 X4.107 Y7.300 E126.76940
G1 X4.107 Y6.700 E126.78936
;LAYER:21
M117 Nb = 22 / 450
G1 F3900 E122.28936
G0 F4800 X6.700 Y-3.830 Z4.460
;TYPE:WALL-OUTER
G1 F3900 E126.78936
G1 F240 X6.700 Y-6.700 E126.88481
G1 X-6.700 Y-6.700 E127.33050
G1 X-6.700 Y-1.951 E127.48845
G1 X-7.300 Y-1.951 E127.50841
G1 X-7.300 Y-7.300 E127.68632
G1 X-4.930 Y-7.300 E127.76514
G1 X-4.929 Y-7.100 E127.77179
G1 X-3.528 Y-7.100 E127.81839
G1 X-3.527 Y-7.300 E127.82504
G1 X-0.481 Y-7.300 E127.92635
G1 X-0.480 Y-7.100 E127.93301
G1 X0.921 Y-7.100 E127.97960
G1 X0.922 Y-7.300 E127.98626
G1 X2.457 Y-7.300 E128.03731
G1 X2.456 Y-7.100 E128.04396
G1 X3.567 Y-7.100 E128.08091
G1 X3.569 Y-7.300 E128.08757
G1 X5.446 Y-7.300 E128.15000
G1 X5.448 Y-7.100 E128.15665
G1 X6.551 Y-7.100 E128.19333
G1 X6.552 Y-7.300 E128.19999
G1 X7.300 Y-7.300 E128.22486
G1 X7.300 Y-3.831 E128.34024
G1 X6.700 Y-3.830 E128.36020
G1 F3900 E123.86020
G0 F4800 X1.542 Y-7.199
;TYPE:FILL
G1 F3900 E128.36020
G1 F360 X1.141 Y-6.798 E128.37906
G0 F4800 X-1.142 Y-6.799
G1 F360 X-1.542 Y-7.199 E128.39788
G1 F3900 E123.89788
G0 F4800 X-6.700 Y1.951
;TYPE:WALL-OUTER
G1 F3900 E128.39788
G1 F240 X-6.700 Y6.700 E128.55583
G1 X-4.144 Y6.700 E128.64084
G1 X-4.143 Y7.300 E128.66080
G1 X-7.300 Y7.300 E128.76580
G1 X-7.300 Y1.951 E128.94371
G1 X-6.700 Y1.951 E128.96367
G1 F3900 E124.46367
G0 F4800 X4.143 Y6.700
G1 F3900 E128.96367
G1 F240 X6.700 Y6.700 E129.04871
G1 X6.700 Y3.831 E129.14413
G1 X7.300 Y3.830 E129.16409
G1 X7.300 Y7.300 E129.27950
G1 X4.144 Y7.300 E129.38447
G1 X4.143 Y6.700 E129.40443
;LAYER:22
M117 Nb = 23 / 450
G1 F3900 E124.90443
G0 F4800 X6.700 Y-3.946 Z4.660
;TYPE:WALL-OUTER
G1 F3900 E129.40443
G1 F240 X6.700 Y-6.700 E129.49603
G1 X-6.700 Y-6.700 E129.94171
G1 X-6.700 Y-2.091 E130.09501
G1 X-7.300 Y-2.092 E130.11496
G1 X-7.300 Y-7.300 E130.28818
G1 X-4.693 Y-7.300 E130.37489
G1 X-4.692 Y-7.100 E130.38154
G1 X-3.319 Y-7.100 E130.42721
G1 X-3.318 Y-7.300 E130.43386
G1 X-0.244 Y-7.300 E130.53610
G1 X-0.243 Y-7.100 E130.54276
G1 X1.130 Y-7.100 E130.58842
G1 X1.131 Y-7.300 E130.59508
G1 X2.451 Y-7.300 E130.63898
G1 X2.450 Y-7.100 E130.64563
G1 X3.566 Y-7.100 E130.68275
G1 X3.565 Y-7.300 E130.68940
G1 X5.451 Y-7.300 E130.75213
G1 X5.452 Y-7.100 E130.75878
G1 X6.564 Y-7.100 E130.79577
G1 X6.565 Y-7.300 E130.80242
G1 X7.300 Y-7.300 E130.82687
G1 X7.300 Y-3.947 E130.93839
G1 X6.700 Y-3.946 E130.95834
G1 F3900 E126.45834
G0 F4800 X1.542 Y-7.199
;TYPE:FILL
G1 F3900 E130.95834
G1 F360 X1.228 Y-6.885 E130.97311
G0 F4800 X-1.142 Y-6.799
G1 F360 X-1.542 Y-7.199 E130.99193
G1 F3900 E126.49193
G0 F4800 X-6.700 Y2.092
;TYPE:WALL-OUTER
G1 F3900 E130.99193
G1 F240 X-6.700 Y6.700 E131.14519
G1 X-4.173 Y6.700 E131.22924
G1 X-4.172 Y7.300 E131.24919
G1 X-7.300 Y7.300 E131.35323
G1 X-7.300 Y2.091 E131.52648
G1 X-6.700 Y2.092 E131.54644
G1 F3900 E127.04644
G0 F4800 X4.172 Y6.700
G1 F3900 E131.54644
G1 F240 X6.700 Y6.700 E131.63052
G1 X6.700 Y3.947 E131.72209
G1 X7.300 Y3.946 E131.74204
G1 X7.300 Y7.300 E131.85360
G1 X4.173 Y7.300 E131.95760
G1 X4.172 Y6.700 E131.97756
;LAYER:23
M117 Nb = 24 / 450
G1 F3900 E127.47756
G0 F4800 X6.700 Y-4.061 Z4.860
;TYPE:WALL-OUTER
G1 F3900 E131.97756
G1 F240 X6.700 Y-6.700 E132.06533
G1 X-6.700 Y-6.700 E132.51102
G1 X-6.700 Y-2.366 E132.65517
G1 X-7.300 Y-2.367 E132.67512
G1 X-7.300 Y-7.300 E132.83920
G1 X-4.468 Y-7.300 E132.93339
G1 X-4.467 Y-7.100 E132.94004
G1 X-3.118 Y-7.100 E132.98491
G1 X-3.117 Y-7.300 E132.99156
G1 X-0.020 Y-7.300 E133.09457
G1 X-0.019 Y-7.100 E133.10122
G1 X1.330 Y-7.100 E133.14609
G1 X1.331 Y-7.300 E133.15274
G1 X2.445 Y-7.300 E133.18979
G1 X2.444 Y-7.100 E133.19644
G1 X3.565 Y-7.100 E133.23373
G1 X3.564 Y-7.300 E133.24038
G1 X5.452 Y-7.300 E133.30317
G1 X5.455 Y-7.100 E133.30983
G1 X6.569 Y-7.100 E133.34688
G1 X6.570 Y-7.300 E133.35353
G1 X7.300 Y-7.300 E133.37781
G1 X7.300 Y-4.062 E133.48551
G1 X6.700 Y-4.061 E133.50546
G1 F3900 E129.00546
G0 F4800 X1.542 Y-7.199
;TYPE:FILL
G1 F3900 E133.50546
G1 F360 X1.429 Y-7.086 E133.51078
G0 F4800 X-1.142 Y-6.799
G1 F360 X-1.542 Y-7.199 E133.52959
G1 F3900 E129.02959
G0 F4800 X-6.700 Y2.367
;TYPE:WALL-OUTER
G1 F3900 E133.52959
G1 F240 X-6.700 Y6.700 E133.67371
G1 X-4.189 Y6.700 E133.75723
G1 X-4.188 Y7.300 E133.77718
G1 X-7.300 Y7.300 E133.88069
G1 X-7.300 Y2.366 E134.04479
G1 X-6.700 Y2.367 E134.06475
G1 F3900 E129.56475
G0 F4800 X4.188 Y6.700
G1 F3900 E134.06475
G1 F240 X6.700 Y6.700 E134.14830
G1 X6.700 Y4.062 E134.23604
G1 X7.300 Y4.061 E134.25599
G1 X7.300 Y7.300 E134.36372
G1 X4.189 Y7.300 E134.46720
G1 X4.188 Y6.700 E134.48715
;LAYER:24
M117 Nb = 25 / 450
G1 F3900 E129.98715
G0 F4800 X6.700 Y-4.176 Z5.060
;TYPE:WALL-OUTER
G1 F3900 E134.48715
G1 F240 X6.700 Y-6.700 E134.57110
G1 X-6.700 Y-6.700 E135.01679
G1 X-6.700 Y-2.642 E135.15176
G1 X-7.300 Y-2.643 E135.17171
G1 X-7.300 Y-7.300 E135.32661
G1 X-4.266 Y-7.300 E135.42752
G1 X-4.265 Y-7.100 E135.43417
G1 X-2.930 Y-7.100 E135.47857
G1 X-2.929 Y-7.300 E135.48522
G1 X0.182 Y-7.300 E135.58870
G1 X0.183 Y-7.100 E135.59535
G1 X1.518 Y-7.100 E135.63975
G1 X1.519 Y-7.300 E135.64640
G1 X2.441 Y-7.300 E135.67707
G1 X2.442 Y-7.100 E135.68372
G1 X3.562 Y-7.100 E135.72097
G1 X3.563 Y-7.300 E135.72762
G1 X5.451 Y-7.300 E135.79042
G1 X5.460 Y-7.100 E135.79708
G1 X6.557 Y-7.100 E135.83356
G1 X6.575 Y-7.300 E135.84024
G1 X7.300 Y-7.300 E135.86436
G1 X7.300 Y-4.177 E135.96823
G1 X6.700 Y-4.176 E135.98818
G1 F3900 E131.48818
G0 F4800 X-1.142 Y-6.799
;TYPE:FILL
G1 F3900 E135.98818
G1 F360 X-1.542 Y-7.199 E136.00700
G0 F4800 X-6.700 Y2.643
;TYPE:WALL-OUTER
G1 F240 X-6.700 Y6.700 E136.14193
G1 X-4.199 Y6.700 E136.22512
G1 X-4.198 Y7.300 E136.24507
G1 X-7.300 Y7.300 E136.34825
G1 X-7.300 Y2.642 E136.50317
G1 X-6.700 Y2.643 E136.52313
G1 F3900 E132.02313
G0 F4800 X4.198 Y6.700
G1 F3900 E136.52313
G1 F240 X6.700 Y6.700 E136.60635
G1 X6.700 Y4.177 E136.69026
G1 X7.300 Y4.176 E136.71022
G1 X7.300 Y7.300 E136.81412
G1 X4.199 Y7.300 E136.91726
G1 X4.198 Y6.700 E136.93722
;LAYER:25
M117 Nb = 26 / 450
G1 F3900 E132.43722
G0 F4800 X6.700 Y-4.107 Z5.260
;TYPE:WALL-OUTER
G1 F3900 E136.93722
G1 F240 X6.700 Y-6.700 E137.02346
G1 X-6.700 Y-6.700 E137.46915
G1 X-6.700 Y-2.918 E137.59494
G1 X-7.300 Y-2.918 E137.61489
G1 X-7.300 Y-7.300 E137.76064
G1 X-4.074 Y-7.300 E137.86794
G1 X-4.073 Y-7.100 E137.87459
G1 X-2.771 Y-7.100 E137.91789
G1 X-2.770 Y-7.300 E137.92455
G1 X0.374 Y-7.300 E138.02912
G1 X0.375 Y-7.100 E138.03577
G1 X1.677 Y-7.100 E138.07907
G1 X1.678 Y-7.300 E138.08572
G1 X2.446 Y-7.300 E138.11127
G1 X2.447 Y-7.100 E138.11792
G1 X3.564 Y-7.100 E138.15507
G1 X3.565 Y-7.300 E138.16172
G1 X5.451 Y-7.300 E138.22445
G1 X5.450 Y-7.100 E138.23110
G1 X6.569 Y-7.100 E138.26832
G1 X6.571 Y-7.300 E138.27497
G1 X7.300 Y-7.300 E138.29922
G1 X7.300 Y-4.108 E138.40539
G1 X6.700 Y-4.107 E138.42534
G1 F3900 E133.92534
G0 F4800 X-1.142 Y-6.799
;TYPE:FILL
G1 F3900 E138.42534
G1 F360 X-1.542 Y-7.199 E138.44416
G0 F4800 X-6.700 Y2.918
;TYPE:WALL-OUTER
G1 F240 X-6.700 Y6.700 E138.56995
G1 X-4.192 Y6.700 E138.65336
G1 X-4.192 Y7.300 E138.67332
G1 X-7.300 Y7.300 E138.77669
G1 X-7.300 Y2.918 E138.92244
G1 X-6.700 Y2.918 E138.94240
G1 F3900 E134.44240
G0 F4800 X4.192 Y6.700
G1 F3900 E138.94240
G1 F240 X6.700 Y6.700 E139.02581
G1 X6.700 Y4.108 E139.11202
G1 X7.300 Y4.107 E139.13198
G1 X7.300 Y7.300 E139.23818
G1 X4.192 Y7.300 E139.34155
G1 X4.192 Y6.700 E139.36151
;LAYER:26
M117 Nb = 27 / 450
G1 F3900 E134.86151
G0 F4800 X6.700 Y-3.992 Z5.460
;TYPE:WALL-OUTER
G1 F3900 E139.36151
G1 F240 X6.700 Y-6.700 E139.45157
G1 X-6.700 Y-6.700 E139.89726
G1 X-6.700 Y-3.193 E140.01390
G1 X-7.300 Y-3.193 E140.03386
G1 X-7.300 Y-7.300 E140.17046
G1 X-3.897 Y-7.300 E140.28364
G1 X-3.896 Y-7.100 E140.29030
G1 X-2.641 Y-7.100 E140.33204
G1 X-2.640 Y-7.300 E140.33869
G1 X0.551 Y-7.300 E140.44482
G1 X0.552 Y-7.100 E140.45147
G1 X1.807 Y-7.100 E140.49322
G1 X1.808 Y-7.300 E140.49987
G1 X2.451 Y-7.300 E140.52125
G1 X2.452 Y-7.100 E140.52791
G1 X3.569 Y-7.100 E140.56506
G1 X3.568 Y-7.300 E140.57171
G1 X5.451 Y-7.300 E140.63434
G1 X5.450 Y-7.100 E140.64099
G1 X6.567 Y-7.100 E140.67814
G1 X6.566 Y-7.300 E140.68479
G1 X7.300 Y-7.300 E140.70921
G1 X7.300 Y-3.993 E140.81920
G1 X6.700 Y-3.992 E140.83916
G1 F3900 E136.33916
G0 F4800 X-1.142 Y-6.799
;TYPE:FILL
G1 F3900 E140.83916
G1 F360 X-1.542 Y-7.199 E140.85797
G0 F4800 X-6.700 Y3.193
;TYPE:WALL-OUTER
G1 F240 X-6.700 Y6.700 E140.97461
G1 X-4.189 Y6.700 E141.05813
G1 X-4.184 Y7.300 E141.07809
G1 X-7.300 Y7.300 E141.18172
G1 X-7.300 Y3.193 E141.31832
G1 X-6.700 Y3.193 E141.33828
G1 F3900 E136.83828
G0 F4800 X4.182 Y6.700
G1 F3900 E141.33828
G1 F240 X6.700 Y6.700 E141.42203
G1 X6.700 Y3.993 E141.51206
G1 X7.300 Y3.992 E141.53202
G1 X7.300 Y7.300 E141.64205
G1 X4.182 Y7.300 E141.74575
G1 X4.182 Y6.700 E141.76571
;LAYER:27
M117 Nb = 28 / 450
G1 F3900 E137.26571
G0 F4800 X6.700 Y-3.876 Z5.660
;TYPE:WALL-OUTER
G1 F3900 E141.76571
G1 F240 X6.700 Y-6.700 E141.85963
G1 X-6.700 Y-6.700 E142.30532
G1 X-6.700 Y-3.469 E142.41278
G1 X-7.300 Y-3.469 E142.43274
G1 X-7.300 Y-7.300 E142.56016
G1 X-3.746 Y-7.300 E142.67836
G1 X-3.745 Y-7.100 E142.68502
G1 X-2.533 Y-7.100 E142.72533
G1 X-2.532 Y-7.300 E142.73198
G1 X0.703 Y-7.300 E142.83958
G1 X0.704 Y-7.100 E142.84623
G1 X1.915 Y-7.100 E142.88651
G1 X1.916 Y-7.300 E142.89316
G1 X2.466 Y-7.300 E142.91145
G1 X2.467 Y-7.100 E142.91810
G1 X3.574 Y-7.100 E142.95492
G1 X3.575 Y-7.300 E142.96157
G1 X5.443 Y-7.300 E143.02370
G1 X5.442 Y-7.100 E143.03036
G1 X6.553 Y-7.100 E143.06731
G1 X6.554 Y-7.300 E143.07396
G1 X7.300 Y-7.300 E143.09877
G1 X7.300 Y-3.877 E143.21262
G1 X6.700 Y-3.876 E143.23258
G1 F3900 E138.73258
G0 F4800 X-1.142 Y-6.799
;TYPE:FILL
G1 F3900 E143.23258
G1 F360 X-1.542 Y-7.199 E143.25139
G0 F4800 X-6.700 Y3.469
;TYPE:WALL-OUTER
G1 F240 X-6.700 Y6.700 E143.35886
G1 X-4.156 Y6.700 E143.44347
G1 X-4.156 Y7.300 E143.46343
G1 X-7.300 Y7.300 E143.56800
G1 X-7.300 Y3.469 E143.69542
G1 X-6.700 Y3.469 E143.71537
G1 F3900 E139.21537
G0 F4800 X4.156 Y6.700
G1 F3900 E143.71537
G1 F240 X6.700 Y6.700 E143.79999
G1 X6.700 Y3.877 E143.89388
G1 X7.300 Y3.876 E143.91384
G1 X7.300 Y7.300 E144.02772
G1 X4.156 Y7.300 E144.13229
G1 X4.156 Y6.700 E144.15224
;LAYER:28
M117 Nb = 29 / 450
G1 F3900 E139.65224
G0 F4800 X6.700 Y-3.761 Z5.860
;TYPE:WALL-OUTER
G1 F3900 E144.15224
G1 F240 X6.700 Y-6.700 E144.25000
G1 X-6.700 Y-6.700 E144.69568
G1 X-6.700 Y-3.744 E144.79400
G1 X-7.300 Y-3.744 E144.81395
G1 X-7.300 Y-7.300 E144.93223
G1 X-3.627 Y-7.300 E145.05439
G1 X-3.626 Y-7.100 E145.06104
G1 X-2.456 Y-7.100 E145.09996
G1 X-2.455 Y-7.300 E145.10661
G1 X0.821 Y-7.300 E145.21557
G1 X0.822 Y-7.100 E145.22222
G1 X1.993 Y-7.100 E145.26117
G1 X1.994 Y-7.300 E145.26782
G1 X2.480 Y-7.300 E145.28399
G1 X2.479 Y-7.105 E145.29047
G1 X3.219 Y-7.100 E145.31509
G1 X3.590 Y-7.100 E145.32743
G1 X3.591 Y-7.300 E145.33408
G1 X5.427 Y-7.300 E145.39514
G1 X5.426 Y-7.100 E145.40180
G1 X6.530 Y-7.100 E145.43851
G1 X6.532 Y-7.300 E145.44517
G1 X7.300 Y-7.300 E145.47071
G1 X7.300 Y-3.762 E145.58839
G1 X6.700 Y-3.761 E145.60834
G1 F3900 E141.10834
G0 F4800 X-1.142 Y-6.799
;TYPE:FILL
G1 F3900 E145.60834
G1 F360 X-1.542 Y-7.199 E145.62716
G0 F4800 X-6.700 Y3.744
;TYPE:WALL-OUTER
G1 F240 X-6.700 Y6.700 E145.72547
G1 X-4.127 Y6.700 E145.81105
G1 X-4.126 Y7.292 E145.83074
G1 X-7.300 Y7.299 E145.93631
G1 X-7.300 Y3.744 E146.05455
G1 X-6.700 Y3.744 E146.07451
G1 F3900 E141.57451
G0 F4800 X4.126 Y6.708
G1 F3900 E146.07451
G1 F240 X5.508 Y6.700 E146.12047
G1 X6.700 Y6.700 E146.16012
G1 X6.700 Y3.762 E146.25784
G1 X7.300 Y3.761 E146.27779
G1 X7.300 Y7.300 E146.39550
G1 X4.127 Y7.300 E146.50103
G1 X4.126 Y6.708 E146.52072
;LAYER:29
M117 Nb = 30 / 450
G1 F3900 E142.02072
G0 F4800 X6.700 Y-3.645 Z6.060
;TYPE:WALL-OUTER
G1 F3900 E146.52072
G1 F240 X6.700 Y-6.700 E146.62233
G1 X-6.700 Y-6.700 E147.06802
G1 X-6.700 Y-4.019 E147.15719
G1 X-7.300 Y-4.019 E147.17715
G1 X-7.300 Y-7.300 E147.28627
G1 X-3.550 Y-7.300 E147.41100
G1 X-3.549 Y-7.100 E147.41765
G1 X-2.403 Y-7.100 E147.45577
G1 X-2.402 Y-7.300 E147.46242
G1 X0.898 Y-7.300 E147.57218
G1 X0.899 Y-7.100 E147.57883
G1 X2.045 Y-7.100 E147.61694
G1 X2.046 Y-7.300 E147.62360
G1 X2.509 Y-7.300 E147.63900
G1 X2.527 Y-7.100 E147.64568
G1 X3.618 Y-7.100 E147.68196
G1 X3.619 Y-7.300 E147.68861
G1 X5.400 Y-7.300 E147.74785
G1 X5.399 Y-7.100 E147.75450
G1 X6.506 Y-7.100 E147.79132
G1 X6.506 Y-7.300 E147.79797
G1 X7.300 Y-7.300 E147.82438
G1 X7.300 Y-3.646 E147.94591
G1 X6.700 Y-3.645 E147.96587
G1 F3900 E143.46587
G0 F4800 X-1.142 Y-6.799
;TYPE:FILL
G1 F3900 E147.96587
G1 F360 X-1.542 Y-7.199 E147.98469
G0 F4800 X-6.700 Y4.019
;TYPE:WALL-OUTER
G1 F240 X-6.700 Y6.700 E148.07386
G1 X-4.078 Y6.700 E148.16106
G1 X-4.078 Y7.300 E148.18102
G1 X-7.300 Y7.300 E148.28818
G1 X-7.300 Y4.019 E148.39731
G1 X-6.700 Y4.019 E148.41727
G1 F3900 E143.91727
G0 F4800 X4.078 Y6.700
G1 F3900 E148.41727
G1 F240 X6.700 Y6.700 E148.50448
G1 X6.700 Y3.646 E148.60605
G1 X7.300 Y3.645 E148.62601
G1 X7.300 Y7.300 E148.74757
G1 X4.078 Y7.300 E148.85474
G1 X4.078 Y6.700 E148.87469
;LAYER:30
M117 Nb = 31 / 450
G1 F3900 E144.37469
G0 F4800 X6.700 Y-3.530 Z6.260
;TYPE:WALL-OUTER
G1 F3900 E148.87469
G1 F240 X6.700 Y-6.700 E148.98013
G1 X-6.700 Y-6.700 E149.42581
G1 X-6.700 Y-4.295 E149.50580
G1 X-7.300 Y-4.294 E149.52576
G1 X-7.300 Y-7.300 E149.62574
G1 X-5.916 Y-7.300 E149.67177
G1 X-5.917 Y-7.100 E149.67843
G1 X-5.291 Y-7.100 E149.69925
G1 X-5.290 Y-7.300 E149.70590
G1 X-3.511 Y-7.300 E149.76507
G1 X-3.510 Y-7.100 E149.77172
G1 X-2.379 Y-7.100 E149.80934
G1 X-2.378 Y-7.300 E149.81599
G1 X-1.467 Y-7.300 E149.84629
G1 X-1.468 Y-7.100 E149.85294
G1 X-0.842 Y-7.100 E149.87376
G1 X-0.841 Y-7.300 E149.88041
G1 X0.937 Y-7.300 E149.93955
G1 X0.938 Y-7.100 E149.94620
G1 X2.069 Y-7.100 E149.98382
G1 X2.070 Y-7.300 E149.99047
G1 X2.549 Y-7.300 E150.00640
G1 X2.563 Y-7.100 E150.01307
G1 X3.661 Y-7.100 E150.04959
G1 X3.662 Y-7.300 E150.05624
G1 X5.358 Y-7.300 E150.11265
G1 X5.357 Y-7.100 E150.11931
G1 X6.468 Y-7.100 E150.15626
G1 X6.470 Y-7.300 E150.16291
G1 X7.300 Y-7.300 E150.19052
G1 X7.300 Y-3.531 E150.31587
G1 X6.700 Y-3.530 E150.33583
G1 F3900 E145.83583
G0 F4800 X-4.026 Y6.700
G1 F3900 E150.33583
G1 F240 X-4.025 Y7.300 E150.35579
G1 X-7.300 Y7.300 E150.46471
G1 X-7.300 Y4.295 E150.56466
G1 X-6.700 Y4.294 E150.58461
G1 X-6.700 Y6.700 E150.66464
G1 X-4.026 Y6.700 E150.75358
G1 F3900 E146.25358
G0 F4800 X4.025 Y6.700
G1 F3900 E150.75358
G1 F240 X6.700 Y6.700 E150.84255
G1 X6.700 Y3.531 E150.94795
G1 X7.300 Y3.530 E150.96790
G1 X7.300 Y7.300 E151.09330
G1 X4.026 Y7.300 E151.20219
G1 X4.025 Y6.700 E151.22215
;LAYER:31
M117 Nb = 32 / 450
G1 F3900 E146.72215
G0 F4800 X6.700 Y-3.414 Z6.460
;TYPE:WALL-OUTER
G1 F3900 E151.22215
G1 F240 X6.700 Y-6.700 E151.33144
G1 X-6.700 Y-6.700 E151.77712
G1 X-6.700 Y-4.570 E151.84797
G1 X-7.300 Y-4.569 E151.86792
G1 X-7.300 Y-7.300 E151.95876
G1 X-6.389 Y-7.300 E151.98906
G1 X-6.388 Y-7.100 E151.99571
G1 X-5.274 Y-7.100 E152.03276
G1 X-5.273 Y-7.300 E152.03941
G1 X-3.500 Y-7.300 E152.09838
G1 X-3.501 Y-7.100 E152.10504
G1 X-2.384 Y-7.100 E152.14219
G1 X-2.380 Y-7.300 E152.14884
G1 X-1.940 Y-7.300 E152.16348
G1 X-1.938 Y-7.100 E152.17013
G1 X-0.825 Y-7.100 E152.20715
G1 X-0.824 Y-7.300 E152.21380
G1 X0.948 Y-7.300 E152.27274
G1 X0.947 Y-7.100 E152.27939
G1 X2.065 Y-7.100 E152.31657
G1 X2.069 Y-7.300 E152.32323
G1 X2.597 Y-7.300 E152.34079
G1 X2.599 Y-7.100 E152.34744
G1 X3.722 Y-7.100 E152.38479
G1 X3.723 Y-7.300 E152.39144
G1 X5.298 Y-7.300 E152.44383
G1 X5.297 Y-7.100 E152.45048
G1 X6.423 Y-7.100 E152.48793
G1 X6.426 Y-7.300 E152.49458
G1 X7.300 Y-7.300 E152.52365
G1 X7.300 Y-3.415 E152.65287
G1 X6.700 Y-3.414 E152.67282
G1 F3900 E148.17282
G0 F4800 X-3.957 Y6.700
G1 F3900 E152.67282
G1 F240 X-3.957 Y7.300 E152.69278
G1 X-7.300 Y7.300 E152.80397
G1 X-7.300 Y4.570 E152.89477
G1 X-6.700 Y4.569 E152.91472
G1 X-6.700 Y6.700 E152.98560
G1 X-3.957 Y6.700 E153.07683
G1 F3900 E148.57683
G0 F4800 X3.957 Y6.700
G1 F3900 E153.07683
G1 F240 X6.700 Y6.700 E153.16807
G1 X6.700 Y3.415 E153.27733
G1 X7.300 Y3.414 E153.29728
G1 X7.300 Y7.300 E153.42653
G1 X3.957 Y7.300 E153.53772
G1 X3.957 Y6.700 E153.55768
;LAYER:32
M117 Nb = 33 / 450
G1 F3900 E149.05768
G0 F4800 X6.700 Y-3.299 Z6.660
;TYPE:WALL-OUTER
G1 F3900 E153.55768
G1 F240 X6.700 Y-6.700 E153.67079
G1 X-6.700 Y-6.700 E154.11648
G1 X-6.700 Y-1.236 E154.29821
G1 X-7.300 Y-1.235 E154.31817
G1 X-7.300 Y-7.300 E154.51989
G1 X-6.355 Y-7.300 E154.55132
G1 X-6.354 Y-7.100 E154.55798
G1 X-5.232 Y-7.100 E154.59529
G1 X-5.231 Y-7.300 E154.60195
G1 X-3.531 Y-7.300 E154.65849
G1 X-3.532 Y-7.100 E154.66514
G1 X-2.403 Y-7.100 E154.70269
G1 X-2.402 Y-7.300 E154.70934
G1 X-1.906 Y-7.300 E154.72584
G1 X-1.905 Y-7.100 E154.73249
G1 X-0.783 Y-7.100 E154.76981
G1 X-0.782 Y-7.300 E154.77646
G1 X0.918 Y-7.300 E154.83300
G1 X0.917 Y-7.100 E154.83966
G1 X2.045 Y-7.100 E154.87717
G1 X2.046 Y-7.300 E154.88383
G1 X2.645 Y-7.300 E154.90375
G1 X2.644 Y-7.178 E154.90781
G1 X2.821 Y-7.100 E154.91424
G1 X3.798 Y-7.100 E154.94673
G1 X3.799 Y-7.300 E154.95339
G1 X5.222 Y-7.300 E155.00072
G1 X5.221 Y-7.100 E155.00737
G1 X6.359 Y-7.100 E155.04522
G1 X6.364 Y-7.300 E155.05187
G1 X7.300 Y-7.300 E155.08300
G1 X7.300 Y-3.300 E155.21604
G1 X6.700 Y-3.299 E155.23600
G1 F3900 E150.73600
G0 F4800 X-6.992 Y-1.335
;TYPE:FILL
G1 F3900 E155.23600
G1 F360 X-7.199 Y-1.683 E155.24573
G1 X-6.798 Y-1.707 E155.26460
G1 X-6.998 Y-2.473 E155.28343
G1 X-7.084 Y-3.124 E155.30227
G1 X-6.798 Y-3.121 E155.31178
G1 F3900 E150.81178
G0 F4800 X-6.700 Y1.235
;TYPE:WALL-OUTER
G1 F3900 E155.31178
G1 F240 X-6.700 Y6.700 E155.49355
G1 X-3.880 Y6.700 E155.58734
G1 X-3.879 Y7.285 E155.60680
G1 X-3.879 Y7.300 E155.60730
G1 X-7.300 Y7.300 E155.72108
G1 X-7.300 Y1.236 E155.92277
G1 X-6.700 Y1.235 E155.94273
G0 F4800 X-6.991 Y1.334
;TYPE:FILL
G1 F360 X-7.199 Y1.555 E155.95252
G1 X-6.998 Y2.051 E155.97134
G1 X-6.998 Y2.617 E155.99017
G1 X-6.798 Y3.100 E156.00755
G0 F4800 X-7.000 Y3.100
G0 X-7.000 Y1.445
G0 X-6.798 Y1.403
;TYPE:SKIN
G1 F360 X-6.868 Y1.334 E156.01082
G1 F3900 E151.51082
G0 F4800 X3.879 Y6.715
;TYPE:WALL-OUTER
G1 F3900 E156.01082
G1 F240 X3.879 Y6.700 E156.01132
G1 X6.700 Y6.700 E156.10515
G1 X6.700 Y3.300 E156.21823
G1 X7.300 Y3.299 E156.23819
G1 X7.300 Y7.300 E156.37126
G1 X3.880 Y7.300 E156.48501
G1 X3.879 Y6.715 E156.50447
;LAYER:33
M117 Nb = 34 / 450
G1 F3900 E152.00447
G0 F4800 X6.700 Y-3.183 Z6.860
;TYPE:WALL-OUTER
G1 F3900 E156.50447
G1 F240 X6.700 Y-6.700 E156.62144
G1 X-6.700 Y-6.700 E157.06713
G1 X-6.700 Y-1.171 E157.25103
G1 X-7.300 Y-1.170 E157.27098
G1 X-7.300 Y-7.300 E157.47487
G1 X-6.300 Y-7.300 E157.50813
G1 X-6.299 Y-7.100 E157.51478
G1 X-5.140 Y-7.100 E157.55333
G1 X-5.139 Y-7.300 E157.55998
G1 X-3.609 Y-7.300 E157.61087
G1 X-3.610 Y-7.100 E157.61752
G1 X-2.456 Y-7.100 E157.65590
G1 X-2.443 Y-7.300 E157.66257
G1 X-1.851 Y-7.300 E157.68226
G1 X-1.850 Y-7.100 E157.68891
G1 X-0.690 Y-7.100 E157.72749
G1 X-0.689 Y-7.300 E157.73414
G1 X0.839 Y-7.300 E157.78497
G1 X0.838 Y-7.100 E157.79162
G1 X1.992 Y-7.100 E157.83000
G1 X2.005 Y-7.300 E157.83667
G1 X2.725 Y-7.300 E157.86061
G1 X2.728 Y-7.100 E157.86727
G1 X3.878 Y-7.100 E157.90551
G1 X3.879 Y-7.300 E157.91217
G1 X5.145 Y-7.300 E157.95427
G1 X5.144 Y-7.100 E157.96093
G1 X6.281 Y-7.100 E157.99874
G1 X6.290 Y-7.300 E158.00540
G1 X7.300 Y-7.300 E158.03899
G1 X7.300 Y-3.184 E158.17589
G1 X6.700 Y-3.183 E158.19585
G1 F3900 E153.69585
G0 F4800 X-6.928 Y-1.271
;TYPE:FILL
G1 F3900 E158.19585
G1 F360 X-7.199 Y-1.555 E158.20858
G1 X-6.999 Y-2.051 E158.22735
G1 X-6.999 Y-2.617 E158.24612
G1 X-6.999 Y-3.182 E158.26487
G1 X-6.896 Y-3.568 E158.27816
G0 F4800 X-7.000 Y-3.568
G0 X-7.000 Y-1.402
G0 X-6.799 Y-1.402
;TYPE:SKIN
G1 F360 X-6.931 Y-1.270 E158.28437
G1 F3900 E153.78437
G0 F4800 X-6.700 Y1.170
;TYPE:WALL-OUTER
G1 F3900 E158.28437
G1 F240 X-6.700 Y6.700 E158.46829
G1 X-3.787 Y6.700 E158.56518
G1 X-3.788 Y7.300 E158.58514
G1 X-7.300 Y7.300 E158.70195
G1 X-7.300 Y1.171 E158.90580
G1 X-6.700 Y1.170 E158.92575
G0 F4800 X-6.925 Y1.268
;TYPE:FILL
G1 F360 X-7.199 Y1.683 E158.93861
G1 X-6.799 Y1.708 E158.95744
G1 X-6.999 Y2.473 E158.97618
G1 X-6.999 Y3.039 E158.99496
G1 X-7.199 Y3.522 E159.01235
G1 F3900 E154.51235
G0 F4800 X3.788 Y6.700
;TYPE:WALL-OUTER
G1 F3900 E159.01235
G1 F240 X6.700 Y6.700 E159.10920
G1 X6.700 Y3.184 E159.22614
G1 X7.300 Y3.183 E159.24610
G1 X7.300 Y7.300 E159.38303
G1 X3.787 Y7.300 E159.49987
G1 X3.788 Y6.700 E159.51983
;LAYER:34
M117 Nb = 35 / 450
G1 F3900 E155.01983
G0 F4800 X6.700 Y-3.068 Z7.060
;TYPE:WALL-OUTER
G1 F3900 E159.51983
G1 F240 X6.700 Y-6.700 E159.64063
G1 X-6.700 Y-6.700 E160.08632
G1 X-6.700 Y-1.106 E160.27237
G1 X-7.300 Y-1.105 E160.29233
G1 X-7.300 Y-7.300 E160.49838
G1 X-6.215 Y-7.300 E160.53446
G1 X-6.214 Y-7.100 E160.54111
G1 X-4.999 Y-7.100 E160.58153
G1 X-4.998 Y-7.300 E160.58818
G1 X-3.760 Y-7.300 E160.62935
G1 X-3.764 Y-7.100 E160.63601
G1 X-2.524 Y-7.100 E160.67725
G1 X-2.522 Y-7.300 E160.68390
G1 X-1.766 Y-7.300 E160.70905
G1 X-1.764 Y-7.100 E160.71570
G1 X-0.550 Y-7.100 E160.75608
G1 X-0.549 Y-7.300 E160.76273
G1 X0.688 Y-7.300 E160.80387
G1 X0.684 Y-7.100 E160.81053
G1 X1.924 Y-7.100 E160.85177
G1 X1.926 Y-7.300 E160.85842
G1 X2.814 Y-7.300 E160.88796
G1 X2.822 Y-7.100 E160.89461
G1 X4.003 Y-7.100 E160.93389
G1 X4.004 Y-7.300 E160.94055
G1 X4.999 Y-7.300 E160.97364
G1 X4.995 Y-7.100 E160.98029
G1 X6.181 Y-7.100 E161.01974
G1 X6.194 Y-7.300 E161.02640
G1 X7.300 Y-7.300 E161.06319
G1 X7.300 Y-3.069 E161.20391
G1 X6.700 Y-3.068 E161.22387
G1 F3900 E156.72387
G0 F4800 X-6.863 Y-1.206
;TYPE:FILL
G1 F3900 E161.22387
G1 F360 X-7.199 Y-1.683 E161.23964
G1 X-6.799 Y-1.708 E161.25847
G1 X-6.999 Y-2.473 E161.27727
G1 X-6.999 Y-3.039 E161.29610
G1 X-7.077 Y-3.682 E161.31489
G1 X-6.799 Y-3.688 E161.32414
G1 F3900 E156.82414
G0 F4800 X-6.700 Y1.105
;TYPE:WALL-OUTER
G1 F3900 E161.32414
G1 F240 X-6.700 Y6.700 E161.51023
G1 X-3.682 Y6.700 E161.61061
G1 X-3.682 Y7.300 E161.63057
G1 X-7.300 Y7.300 E161.75090
G1 X-7.300 Y1.106 E161.95691
G1 X-6.700 Y1.105 E161.97687
G0 F4800 X-6.861 Y1.204
;TYPE:FILL
G1 F360 X-7.199 Y1.555 E161.99275
G1 X-6.998 Y2.051 E162.01158
G1 X-6.998 Y2.616 E162.03037
G1 X-6.998 Y3.182 E162.04919
G1 X-6.798 Y3.666 E162.06661
G0 F4800 X-7.000 Y3.666
G0 X-7.000 Y1.403
G0 X-6.798 Y1.403
;TYPE:SKIN
G1 F360 X-6.997 Y1.204 E162.07597
G1 F3900 E157.57597
G0 F4800 X3.682 Y6.700
;TYPE:WALL-OUTER
G1 F3900 E162.07597
G1 F240 X6.700 Y6.700 E162.17635
G1 X6.700 Y3.069 E162.29712
G1 X7.300 Y3.068 E162.31708
G1 X7.300 Y7.300 E162.45783
G1 X3.682 Y7.300 E162.57817
G1 X3.682 Y6.700 E162.59812
;LAYER:35
M117 Nb = 36 / 450
G1 F3900 E158.09812
G0 F4800 X6.700 Y-2.952 Z7.260
;TYPE:WALL-OUTER
G1 F3900 E162.59812
G1 F240 X6.700 Y-6.700 E162.72278
G1 X-6.700 Y-6.700 E163.16847
G1 X-6.700 Y-1.041 E163.35669
G1 X-7.300 Y-1.040 E163.37664
G1 X-7.300 Y-7.300 E163.58485
G1 X-6.090 Y-7.300 E163.62510
G1 X-6.089 Y-7.100 E163.63175
G1 X-4.728 Y-7.100 E163.67702
G1 X-4.727 Y-7.300 E163.68367
G1 X-4.027 Y-7.300 E163.70695
G1 X-4.028 Y-7.100 E163.71360
G1 X-2.646 Y-7.100 E163.75957
G1 X-2.645 Y-7.297 E163.76612
G1 X-1.641 Y-7.299 E163.79951
G1 X-1.640 Y-7.100 E163.80613
G1 X-0.279 Y-7.100 E163.85140
G1 X-0.278 Y-7.300 E163.85805
G1 X0.421 Y-7.300 E163.88130
G1 X0.420 Y-7.100 E163.88795
G1 X1.802 Y-7.100 E163.93392
G1 X1.803 Y-7.297 E163.94047
G1 X2.937 Y-7.299 E163.97819
G1 X2.938 Y-7.100 E163.98481
G1 X4.228 Y-7.100 E164.02771
G1 X4.229 Y-7.300 E164.03436
G1 X4.766 Y-7.300 E164.05222
G1 X4.766 Y-7.100 E164.05888
G1 X6.068 Y-7.100 E164.10218
G1 X6.079 Y-7.300 E164.10884
G1 X7.300 Y-7.300 E164.14945
G1 X7.300 Y-2.953 E164.29404
G1 X6.700 Y-2.952 E164.31399
G1 F3900 E159.81399
G0 F4800 X-6.799 Y-1.142
;TYPE:FILL
G1 F3900 E164.31399
G1 F360 X-7.199 Y-1.555 E164.33278
G1 X-6.999 Y-2.051 E164.35155
G1 X-6.999 Y-2.617 E164.37032
G1 X-6.999 Y-3.182 E164.38907
G1 X-6.999 Y-3.748 E164.40780
G1 X-6.911 Y-4.118 E164.42045
G0 F4800 X-7.000 Y-1.402
G0 X-6.799 Y-1.402
;TYPE:SKIN
G1 F360 X-7.062 Y-1.139 E164.43282
G1 F3900 E159.93282
G0 F4800 X-7.300 Y1.041
;TYPE:WALL-OUTER
G1 F3900 E164.43282
G1 F240 X-6.700 Y1.040 E164.45278
G1 X-6.700 Y6.700 E164.64103
G1 X-3.567 Y6.700 E164.74523
G1 X-3.567 Y7.300 E164.76519
G1 X-7.300 Y7.300 E164.88935
G1 X-7.300 Y1.041 E165.09752
G0 F4800 X-7.199 Y1.542
;TYPE:FILL
G1 F360 X-6.939 Y1.140 E165.11631
G1 X-6.998 Y1.341 E165.12194
G1 X-6.998 Y1.907 E165.14077
G1 X-6.998 Y2.473 E165.15959
G1 X-6.998 Y3.038 E165.17838
G1 X-6.998 Y3.604 E165.19721
G1 X-7.199 Y4.087 E165.21461
G1 F3900 E160.71461
G0 F4800 X3.567 Y6.700
;TYPE:WALL-OUTER
G1 F3900 E165.21461
G1 F240 X6.700 Y6.700 E165.31881
G1 X6.700 Y2.953 E165.44344
G1 X7.300 Y2.952 E165.46339
G1 X7.300 Y7.300 E165.60801
G1 X3.567 Y7.300 E165.73217
G1 X3.567 Y6.700 E165.75213
;LAYER:36
M117 Nb = 37 / 450
G1 F3900 E161.25213
G0 F4800 X6.700 Y-2.837 Z7.460
;TYPE:WALL-OUTER
G1 F3900 E165.75213
G1 F240 X6.700 Y-6.700 E165.88061
G1 X-6.700 Y-6.700 E166.32629
G1 X-6.700 Y-0.977 E166.51664
G1 X-7.300 Y-0.976 E166.53660
G1 X-7.300 Y-7.300 E166.74694
G1 X-5.925 Y-7.300 E166.79267
G1 X-5.924 Y-7.100 E166.79932
G1 X-2.810 Y-7.100 E166.90289
G1 X-2.809 Y-7.300 E166.90954
G1 X-1.475 Y-7.300 E166.95391
G1 X-1.472 Y-7.100 E166.96057
G1 X1.638 Y-7.100 E167.06401
G1 X1.639 Y-7.300 E167.07066
G1 X3.104 Y-7.300 E167.11938
G1 X3.105 Y-7.100 E167.12604
G1 X5.917 Y-7.100 E167.21956
G1 X5.920 Y-7.300 E167.22622
G1 X7.300 Y-7.300 E167.27212
G1 X7.300 Y-2.838 E167.42052
G1 X6.700 Y-2.837 E167.44048
G1 F3900 E162.94048
G0 F4800 X-6.798 Y-1.141
;TYPE:FILL
G1 F3900 E167.44048
G1 F360 X-7.199 Y-1.401 E167.45935
G1 X-6.906 Y-1.250 E167.46801
G1 X-6.998 Y-1.907 E167.48688
G1 X-6.998 Y-2.473 E167.50571
G1 X-6.998 Y-3.039 E167.52453
G1 X-6.998 Y-3.604 E167.54337
G1 X-7.069 Y-4.241 E167.56224
G1 X-6.798 Y-4.253 E167.57126
G1 F3900 E163.07126
G0 F4800 X-6.700 Y0.976
;TYPE:WALL-OUTER
G1 F3900 E167.57126
G1 F240 X-6.700 Y6.700 E167.76164
G1 X-3.424 Y6.700 E167.87060
G1 X-3.424 Y7.300 E167.89056
G1 X-7.300 Y7.300 E168.01947
G1 X-7.300 Y0.977 E168.22978
G1 X-6.700 Y0.976 E168.24973
G0 F4800 X-6.799 Y1.142
;TYPE:FILL
G1 F360 X-7.199 Y1.555 E168.26852
G1 X-6.999 Y2.051 E168.28729
G1 X-6.999 Y2.617 E168.30606
G1 X-6.999 Y3.182 E168.32481
G1 X-6.999 Y3.748 E168.34354
G1 X-6.799 Y4.231 E168.36093
G0 F4800 X-7.000 Y4.231
G0 X-7.000 Y1.402
G0 X-6.799 Y1.402
;TYPE:SKIN
G1 F360 X-7.125 Y1.076 E168.37626
G1 F3900 E163.87626
G0 F4800 X3.424 Y6.700
;TYPE:WALL-OUTER
G1 F3900 E168.37626
G1 F240 X6.700 Y6.700 E168.48522
G1 X6.700 Y2.838 E168.61367
G1 X7.300 Y2.837 E168.63363
G1 X7.300 Y7.300 E168.78207
G1 X3.424 Y7.300 E168.91099
G1 X3.424 Y6.700 E168.93094
;LAYER:37
M117 Nb = 38 / 450
G1 F3900 E164.43094
G0 F4800 X6.700 Y-2.721 Z7.660
;TYPE:WALL-OUTER
G1 F3900 E168.93094
G1 F240 X6.700 Y-6.700 E169.06328
G1 X-6.700 Y-6.700 E169.50897
G1 X-6.700 Y-0.912 E169.70148
G1 X-7.300 Y-0.911 E169.72144
G1 X-7.300 Y-7.300 E169.93393
G1 X-5.673 Y-7.300 E169.98805
G1 X-5.672 Y-7.100 E169.99470
G1 X-3.068 Y-7.100 E170.08131
G1 X-3.067 Y-7.300 E170.08796
G1 X-1.223 Y-7.300 E170.14929
G1 X-1.222 Y-7.100 E170.15595
G1 X1.381 Y-7.100 E170.24252
G1 X1.382 Y-7.300 E170.24917
G1 X3.317 Y-7.300 E170.31353
G1 X3.318 Y-7.100 E170.32018
G1 X5.698 Y-7.100 E170.39934
G1 X5.699 Y-7.300 E170.40600
G1 X7.300 Y-7.300 E170.45925
G1 X7.300 Y-2.722 E170.61151
G1 X6.700 Y-2.721 E170.63147
G1 F3900 E166.13147
G0 F4800 X1.542 Y-7.199
;TYPE:FILL
G1 F3900 E170.63147
G1 F360 X1.481 Y-7.138 E170.63434
G0 F4800 X-1.320 Y-6.977
G1 F360 X-1.542 Y-7.199 E170.64478
G0 F4800 X-7.199 Y-1.542
G1 F360 X-6.798 Y-1.271 E170.66365
G1 X-7.195 Y-1.289 E170.68209
G1 X-6.999 Y-2.051 E170.70087
G1 X-6.999 Y-2.617 E170.71965
G1 X-6.999 Y-3.182 E170.73839
G1 X-6.999 Y-3.748 E170.75712
G1 X-6.999 Y-4.314 E170.77590
G1 X-6.925 Y-4.671 E170.78803
G1 F3900 E166.28803
G0 F4800 X-6.700 Y0.911
;TYPE:WALL-OUTER
G1 F3900 E170.78803
G1 F240 X-6.700 Y6.700 E170.98057
G1 X-3.268 Y6.700 E171.09472
G1 X-3.268 Y7.300 E171.11467
G1 X-7.300 Y7.300 E171.24878
G1 X-7.300 Y0.912 E171.46124
G1 X-6.700 Y0.911 E171.48120
G0 F4800 X-6.799 Y1.142
;TYPE:FILL
G1 F360 X-7.199 Y1.683 E171.50000
G1 X-6.999 Y1.342 E171.51880
G1 X-6.950 Y1.010 E171.52996
G0 F4800 X-6.799 Y1.991
;TYPE:SKIN
G1 F360 X-6.999 Y2.473 E171.54875
G1 X-6.999 Y3.039 E171.56753
G1 X-6.999 Y3.605 E171.58631
G1 X-6.999 Y4.170 E171.60505
G1 X-7.199 Y4.653 E171.62244
G1 F3900 E167.12244
G0 F4800 X3.268 Y6.700
;TYPE:WALL-OUTER
G1 F3900 E171.62244
G1 F240 X6.700 Y6.700 E171.73659
G1 X6.700 Y2.722 E171.86890
G1 X7.300 Y2.721 E171.88885
G1 X7.300 Y7.300 E172.04115
G1 X3.268 Y7.300 E172.17526
G1 X3.268 Y6.700 E172.19521
;LAYER:38
M117 Nb = 39 / 450
G1 F3900 E167.69521
G0 F4800 X6.700 Y-2.606 Z7.860
;TYPE:WALL-OUTER
G1 F3900 E172.19521
G1 F240 X6.700 Y-6.700 E172.33138
G1 X-6.700 Y-6.700 E172.77707
G1 X-6.700 Y-0.847 E172.97174
G1 X-7.300 Y-0.846 E172.99169
G1 X-7.300 Y-7.300 E173.20635
G1 X-5.284 Y-7.300 E173.27341
G1 X-5.283 Y-7.100 E173.28006
G1 X-3.441 Y-7.100 E173.34132
G1 X-3.440 Y-7.300 E173.34798
G1 X-0.835 Y-7.300 E173.43462
G1 X-0.834 Y-7.100 E173.44127
G1 X1.007 Y-7.100 E173.50250
G1 X1.008 Y-7.300 E173.50915
G1 X3.679 Y-7.300 E173.59799
G1 X3.680 Y-7.100 E173.60464
G1 X5.312 Y-7.100 E173.65892
G1 X5.321 Y-7.295 E173.66542
G1 X7.300 Y-7.300 E173.73124
G1 X7.300 Y-2.607 E173.88733
G1 X6.700 Y-2.606 E173.90729
G1 F3900 E169.40729
G0 F4800 X1.542 Y-7.199
;TYPE:FILL
G1 F3900 E173.90729
G1 F360 X1.141 Y-6.798 E173.92615
G0 F4800 X-1.142 Y-6.799
G1 F360 X-1.542 Y-7.199 E173.94496
G1 F3900 E169.44496
G0 F4800 X-7.199 Y-1.542
G1 F3900 E173.94496
G1 F360 X-6.798 Y-1.141 E173.96382
G0 F4800 X-6.700 Y0.846
;TYPE:WALL-OUTER
G1 F240 X-6.700 Y6.700 E174.15853
G1 X-3.094 Y6.700 E174.27846
G1 X-3.094 Y7.300 E174.29842
G1 X-7.300 Y7.300 E174.43831
G1 X-7.300 Y0.847 E174.65294
G1 X-6.700 Y0.846 E174.67290
G0 F4800 X-6.799 Y1.142
;TYPE:FILL
G1 F360 X-7.199 Y1.542 E174.69171
G1 F3900 E170.19171
G0 F4800 X3.094 Y6.700
;TYPE:WALL-OUTER
G1 F3900 E174.69171
G1 F240 X6.700 Y6.700 E174.81165
G1 X6.700 Y2.607 E174.94778
G1 X7.300 Y2.606 E174.96774
G1 X7.300 Y7.300 E175.12386
G1 X3.094 Y7.300 E175.26375
G1 X3.094 Y6.700 E175.28371
;LAYER:39
M117 Nb = 40 / 450
G1 F3900 E170.78371
G0 F4800 X6.700 Y-2.491 Z8.060
;TYPE:WALL-OUTER
G1 F3900 E175.28371
G1 F240 X6.700 Y-6.700 E175.42370
G1 X-6.700 Y-6.700 E175.86939
G1 X-6.700 Y-0.782 E176.06622
G1 X-7.300 Y-0.781 E176.08618
G1 X-7.300 Y-7.300 E176.30300
G1 X7.300 Y-7.300 E176.78860
G1 X7.300 Y-2.491 E176.94854
G1 X6.700 Y-2.491 E176.96850
G0 F4800 X6.910 Y-2.791
G0 X7.041 Y-7.041
G0 X1.542 Y-7.000
G0 X1.542 Y-7.199
;TYPE:FILL
G1 F360 X1.142 Y-6.799 E176.98732
G0 F4800 X1.142 Y-7.000
G0 X-1.142 Y-7.000
G0 X-1.142 Y-6.799
G1 F360 X-1.542 Y-7.199 E177.00613
G0 F4800 X-1.542 Y-7.000
G0 X-7.041 Y-7.041
G0 X-7.000 Y-1.542
G0 X-7.199 Y-1.542
G1 F360 X-6.798 Y-1.141 E177.02499
G1 F3900 E172.52499
G0 F4800 X-6.700 Y0.781
;TYPE:WALL-OUTER
G1 F3900 E177.02499
G1 F240 X-6.700 Y6.700 E177.22186
G1 X-2.884 Y6.700 E177.34878
G1 X-2.885 Y7.300 E177.36874
G1 X-7.300 Y7.300 E177.51558
G1 X-7.300 Y0.782 E177.73237
G1 X-6.700 Y0.781 E177.75232
G0 F4800 X-6.799 Y1.142
;TYPE:FILL
G1 F360 X-7.199 Y1.542 E177.77114
G1 F3900 E173.27114
G0 F4800 X2.885 Y6.700
;TYPE:WALL-OUTER
G1 F3900 E177.77114
G1 F240 X6.700 Y6.700 E177.89803
G1 X6.700 Y2.491 E178.03802
G1 X7.300 Y2.491 E178.05797
G1 X7.300 Y7.300 E178.21792
G1 X2.884 Y7.300 E178.36480
G1 X2.885 Y6.700 E178.38476
;LAYER:40
M117 Nb = 41 / 450
G1 F3900 E173.88476
G0 F4800 X6.700 Y-2.376 Z8.260
;TYPE:WALL-OUTER
G1 F3900 E178.38476
G1 F240 X6.700 Y-6.700 E178.52857
G1 X-6.700 Y-6.700 E178.97426
G1 X-6.700 Y-0.717 E179.17325
G1 X-7.300 Y-0.716 E179.19321
G1 X-7.300 Y-7.300 E179.41219
G1 X7.300 Y-7.300 E179.89779
G1 X7.300 Y-2.376 E180.06157
G1 X6.700 Y-2.376 E180.08152
G0 F4800 X6.910 Y-2.676
G0 X7.041 Y-7.041
G0 X1.542 Y-7.000
G0 X1.542 Y-7.199
;TYPE:FILL
G1 F360 X1.142 Y-6.799 E180.10034
G0 F4800 X1.142 Y-7.000
G0 X-1.142 Y-7.000
G0 X-1.142 Y-6.799
G1 F360 X-1.542 Y-7.199 E180.11915
G0 F4800 X-1.542 Y-7.000
G0 X-7.041 Y-7.041
G0 X-7.000 Y-1.542
G0 X-7.199 Y-1.542
G1 F360 X-6.799 Y-1.142 E180.13797
G1 F3900 E175.63797
G0 F4800 X-6.700 Y0.716
;TYPE:WALL-OUTER
G1 F3900 E180.13797
G1 F240 X-6.700 Y6.700 E180.33699
G1 X-2.645 Y6.700 E180.47186
G1 X-2.645 Y7.300 E180.49182
G1 X-7.300 Y7.300 E180.64665
G1 X-7.300 Y0.717 E180.86560
G1 X-6.700 Y0.716 E180.88555
G0 F4800 X-6.799 Y1.142
;TYPE:FILL
G1 F360 X-7.199 Y1.542 E180.90437
G1 F3900 E176.40437
G0 F4800 X2.645 Y6.700
;TYPE:WALL-OUTER
G1 F3900 E180.90437
G1 F240 X6.700 Y6.700 E181.03924
G1 X6.700 Y2.376 E181.18306
G1 X7.300 Y2.376 E181.20301
G1 X7.300 Y7.300 E181.36678
G1 X2.645 Y7.300 E181.52161
G1 X2.645 Y6.700 E181.54157
;LAYER:41
M117 Nb = 42 / 450
G1 F3900 E177.04157
G0 F4800 X6.700 Y-2.261 Z8.460
;TYPE:WALL-OUTER
G1 F3900 E181.54157
G1 F240 X6.700 Y-6.700 E181.68921
G1 X-6.700 Y-6.700 E182.13489
G1 X-6.700 Y-0.652 E182.33605
G1 X-7.300 Y-0.651 E182.35601
G1 X-7.300 Y-7.300 E182.57715
G1 X7.300 Y-7.300 E183.06275
G1 X7.300 Y-2.261 E183.23035
G1 X6.700 Y-2.261 E183.25031
G0 F4800 X6.910 Y-2.561
G0 X7.041 Y-7.041
G0 X1.542 Y-7.000
G0 X1.542 Y-7.199
;TYPE:FILL
G1 F360 X1.142 Y-6.799 E183.26912
G0 F4800 X1.142 Y-7.000
G0 X-1.142 Y-7.000
G0 X-1.142 Y-6.799
G1 F360 X-1.542 Y-7.199 E183.28794
G0 F4800 X-1.542 Y-7.000
G0 X-7.041 Y-7.041
G0 X-7.000 Y-1.542
G0 X-7.199 Y-1.542
G1 F360 X-6.799 Y-1.142 E183.30675
G0 F4800 X-6.910 Y0.952
G0 X-7.000 Y0.861
G0 X-6.700 Y0.651
;TYPE:WALL-OUTER
G1 F240 X-6.700 Y6.700 E183.50794
G1 X-2.362 Y6.700 E183.65222
G1 X-2.362 Y7.300 E183.67218
G1 X-7.300 Y7.300 E183.83642
G1 X-7.300 Y0.652 E184.05753
G1 X-6.700 Y0.651 E184.07749
G0 F4800 X-6.799 Y1.142
;TYPE:FILL
G1 F360 X-7.199 Y1.542 E184.09630
G1 F3900 E179.59630
G0 F4800 X2.362 Y6.700
;TYPE:WALL-OUTER
G1 F3900 E184.09630
G1 F240 X6.700 Y6.700 E184.24058
G1 X6.700 Y2.261 E184.38823
G1 X7.300 Y2.261 E184.40818
G1 X7.300 Y7.300 E184.57578
G1 X2.362 Y7.300 E184.74002
G1 X2.362 Y6.700 E184.75997
;LAYER:42
M117 Nb = 43 / 450
G0 F4800 X2.013 Y6.700 Z8.660
;TYPE:WALL-OUTER
G1 F300 X6.700 Y6.700 E184.91587
G1 X6.700 Y-6.700 E185.36155
G1 X-6.700 Y-6.700 E185.80724
G1 X-6.700 Y-0.587 E186.01056
G1 X-7.300 Y-0.586 E186.03051
G1 X-7.300 Y-7.300 E186.25382
G1 X7.300 Y-7.300 E186.73942
G1 X7.300 Y7.300 E187.22502
G1 X2.013 Y7.300 E187.40086
G1 X2.013 Y6.700 E187.42082
G0 F4800 X2.222 Y7.000
G0 X7.041 Y7.041
G0 X7.000 Y1.542
G0 X7.199 Y1.542
;TYPE:FILL
G1 F420 X6.799 Y1.142 E187.43963
G0 F4800 X7.000 Y1.142
G0 X7.000 Y-1.142
G0 X6.799 Y-1.142
G1 F420 X7.199 Y-1.542 E187.45845
G0 F4800 X7.000 Y-1.542
G0 X7.041 Y-7.041
G0 X1.542 Y-7.000
G0 X1.542 Y-7.199
G1 F420 X1.142 Y-6.799 E187.47726
G0 F4800 X1.142 Y-7.000
G0 X-1.142 Y-7.000
G0 X-1.142 Y-6.799
G1 F420 X-1.542 Y-7.199 E187.49608
G0 F4800 X-1.542 Y-7.000
G0 X-7.041 Y-7.041
G0 X-7.000 Y-1.542
G0 X-7.199 Y-1.542
G1 F420 X-6.799 Y-1.142 E187.51489
G0 F4800 X-7.000 Y-1.142
G0 X-7.041 Y-7.041
G0 X7.041 Y-7.041
G0 X7.052 Y-2.938
;TYPE:SKIN
G1 F420 X6.949 Y2.937 E187.71033
G1 F3900 E183.21033
G0 F4800 X-2.013 Y6.700
;TYPE:WALL-OUTER
G1 F3900 E187.71033
G1 F300 X-2.013 Y7.300 E187.73028
G1 X-7.300 Y7.300 E187.90613
G1 X-7.300 Y0.587 E188.12940
G1 X-6.700 Y0.586 E188.14936
G1 X-6.700 Y6.700 E188.35271
G1 X-2.013 Y6.700 E188.50860
G0 F4800 X-2.222 Y7.000
G0 X-7.041 Y7.041
G0 X-7.000 Y1.542
G0 X-7.199 Y1.542
;TYPE:FILL
G1 F420 X-6.799 Y1.142 E188.52742
;LAYER:43
M117 Nb = 44 / 450
G0 F4800 X-6.910 Y-0.822 Z8.860
G0 X-7.000 Y-0.732
G0 X-6.700 Y-0.522
;TYPE:WALL-OUTER
G1 F360 X-7.300 Y-0.521 E188.54737
G1 X-7.300 Y-7.300 E188.77284
G1 X7.300 Y-7.300 E189.25844
G1 X7.300 Y7.300 E189.74404
G1 X1.557 Y7.300 E189.93505
G1 X1.558 Y6.700 E189.95501
G1 X6.700 Y6.700 E190.12603
G1 X6.700 Y-6.700 E190.57172
G1 X-6.700 Y-6.700 E191.01740
G1 X-6.700 Y-0.522 E191.22289
G0 F4800 X-6.799 Y-1.142
;TYPE:FILL
G1 F480 X-7.199 Y-1.542 E191.24170
G0 F4800 X-7.000 Y-1.542
G0 X-7.041 Y-7.041
G0 X-1.542 Y-7.000
G0 X-1.542 Y-7.199
G1 F480 X-1.142 Y-6.799 E191.26051
G0 F4800 X-1.142 Y-7.000
G0 X1.142 Y-7.000
G0 X1.142 Y-6.799
G1 F480 X1.542 Y-7.199 E191.27933
G0 F4800 X1.542 Y-7.000
G0 X7.041 Y-7.041
G0 X7.000 Y-1.542
G0 X7.199 Y-1.542
G1 F480 X6.799 Y-1.142 E191.29814
G0 F4800 X7.000 Y-1.142
G0 X7.000 Y1.142
G0 X6.799 Y1.142
G1 F480 X7.199 Y1.555 E191.31693
G1 X6.999 Y2.051 E191.33570
G1 X6.938 Y2.677 E191.35447
G1 X7.199 Y2.700 E191.36319
G0 F4800 X6.799 Y1.402
;TYPE:SKIN
G1 F480 X6.999 Y0.920 E191.38198
G1 X6.999 Y0.354 E191.40076
G1 X6.999 Y-0.210 E191.41951
G1 X6.999 Y-0.776 E191.43825
G1 X6.999 Y-1.342 E191.45702
G1 X6.999 Y-1.908 E191.47580
G1 X6.999 Y-2.473 E191.49455
G1 X7.065 Y-2.822 E191.50636
G0 F4800 X7.041 Y-7.041
G0 X6.655 Y-6.938
G1 F480 X6.633 Y-7.199 E191.51867
G1 X5.937 Y-7.068 E191.53091
G1 X5.371 Y-7.068 E191.54315
G1 X4.806 Y-7.068 E191.55541
G1 X4.240 Y-7.068 E191.56765
G1 X3.674 Y-7.068 E191.57989
G1 X3.109 Y-7.068 E191.59215
G1 X2.543 Y-7.068 E191.60438
G1 X1.977 Y-7.068 E191.61662
G1 X1.412 Y-7.068 E191.62888
G1 X0.846 Y-7.068 E191.64112
G1 X0.280 Y-7.068 E191.65335
G1 X-0.284 Y-7.068 E191.66555
G1 X-0.849 Y-7.068 E191.67781
G1 X-1.415 Y-7.068 E191.69005
G1 X-1.981 Y-7.068 E191.70228
G1 X-2.546 Y-7.068 E191.71450
G1 X-3.112 Y-7.068 E191.72673
G1 X-3.678 Y-7.068 E191.73897
G1 X-4.244 Y-7.068 E191.75121
G1 X-4.809 Y-7.068 E191.76347
G1 X-5.375 Y-7.068 E191.77570
G1 X-5.941 Y-7.068 E191.78794
G1 X-6.506 Y-7.068 E191.80020
G1 X-6.920 Y-6.938 E191.81463
G0 F4800 X7.041 Y-7.041
G0 X7.041 Y7.041
G0 X1.969 Y7.000
G0 X1.969 Y6.798
G1 F480 X1.895 Y7.155 E191.82934
G1 X2.616 Y6.998 E191.84817
G1 X3.233 Y6.947 E191.86702
G1 X3.265 Y7.199 E191.87546
G1 F3900 E187.37546
G0 F4800 X-1.558 Y7.300
;TYPE:WALL-OUTER
G1 F3900 E191.87546
G1 F360 X-7.300 Y7.300 E192.06644
G1 X-7.300 Y0.522 E192.29188
G1 X-6.700 Y0.521 E192.31184
G1 X-6.700 Y6.700 E192.51735
G1 X-1.557 Y6.700 E192.68841
G1 X-1.558 Y7.300 E192.70836
G0 F4800 X-1.857 Y7.090
G0 X-7.041 Y7.041
G0 X-7.000 Y1.542
G0 X-7.199 Y1.542
;TYPE:FILL
G1 F480 X-6.799 Y1.142 E192.72718
G0 F4800 X-7.000 Y1.142
G0 X-7.041 Y7.041
G0 X-3.121 Y7.000
G0 X-3.121 Y6.798
;TYPE:SKIN
G1 F480 X-3.161 Y7.121 E192.73874
G1 X-2.473 Y6.998 E192.75756
G1 X-1.823 Y6.914 E192.77637
G1 X-1.825 Y7.199 E192.78585
;LAYER:44
M117 Nb = 45 / 450
G1 F3900 E188.28585
G0 F4800 X0.759 Y7.300 Z9.060
;TYPE:WALL-OUTER
G1 F3900 E192.78585
G1 F360 X0.758 Y6.700 E192.80580
G1 X6.700 Y6.700 E193.00343
G1 X6.700 Y-6.700 E193.44912
G1 X-6.700 Y-6.700 E193.89480
G1 X-6.700 Y-0.457 E194.10245
G1 X-7.300 Y-0.456 E194.12240
G1 X-7.300 Y-7.300 E194.35004
G1 X7.300 Y-7.300 E194.83563
G1 X7.300 Y7.300 E195.32123
G1 X0.759 Y7.300 E195.53879
G0 F4800 X1.142 Y6.799
;TYPE:FILL
G1 F480 X1.542 Y7.199 E195.55760
G0 F4800 X1.542 Y7.000
G0 X7.041 Y7.041
G0 X7.000 Y1.542
G0 X7.199 Y1.542
G1 F480 X6.799 Y1.142 E195.57642
G0 F4800 X7.000 Y1.142
G0 X7.000 Y-1.142
G0 X6.799 Y-1.142
G1 F480 X7.199 Y-1.542 E195.59523
G0 F4800 X7.000 Y-1.542
G0 X7.041 Y-7.041
G0 X1.542 Y-7.000
G0 X1.542 Y-7.199
G1 F480 X1.142 Y-6.799 E195.61405
G0 F4800 X1.142 Y-7.000
G0 X-1.142 Y-7.000
G0 X-1.142 Y-6.799
G1 F480 X-1.542 Y-7.199 E195.63286
G0 F4800 X-1.542 Y-7.000
G0 X-7.041 Y-7.041
G0 X-7.000 Y-1.542
G0 X-7.199 Y-1.542
G1 F480 X-6.799 Y-1.142 E195.65168
G0 F4800 X-7.000 Y-1.142
G0 X-7.041 Y-7.041
G0 X7.041 Y7.041
G0 X1.099 Y7.041
G0 X0.968 Y7.000
G0 X0.859 Y6.799
;TYPE:SKIN
G1 F480 X1.342 Y6.999 E195.67045
G1 X1.908 Y6.999 E195.68923
G1 X2.473 Y6.999 E195.70798
G1 X3.075 Y7.034 E195.72673
G1 X3.122 Y6.799 E195.73470
G0 F4800 X3.122 Y7.000
G0 X7.041 Y7.041
G0 X6.949 Y2.706
G1 F480 X6.998 Y2.473 E195.74175
G1 X6.998 Y1.907 E195.76057
G1 X6.998 Y1.342 E195.77941
G1 X6.998 Y0.776 E195.79824
G1 X6.998 Y0.210 E195.81706
G1 X6.998 Y-0.354 E195.83587
G1 X6.998 Y-0.919 E195.85471
G1 X6.998 Y-1.485 E195.87353
G1 X6.998 Y-2.051 E195.89236
G1 X6.798 Y-2.534 E195.90975
G1 F3900 E191.40975
G0 F4800 X-0.759 Y6.700
;TYPE:WALL-OUTER
G1 F3900 E195.90975
G1 F360 X-0.758 Y7.300 E195.92970
G1 X-7.300 Y7.300 E196.14729
G1 X-7.300 Y0.457 E196.37489
G1 X-6.700 Y0.456 E196.39484
G1 X-6.700 Y6.700 E196.60252
G1 X-0.759 Y6.700 E196.80012
G0 F4800 X-1.141 Y6.798
;TYPE:FILL
G1 F480 X-1.542 Y7.199 E196.81898
G0 F4800 X-1.542 Y7.000
G0 X-7.041 Y7.041
G0 X-7.000 Y1.542
G0 X-7.199 Y1.542
G1 F480 X-6.799 Y1.142 E196.83780
G0 F4800 X-7.000 Y1.142
G0 X-7.041 Y7.041
G0 X-3.100 Y7.000
G0 X-3.100 Y6.798
;TYPE:SKIN
G1 F480 X-2.617 Y6.998 E196.85662
G1 X-2.051 Y6.998 E196.87544
G1 X-1.486 Y6.998 E196.89424
G1 X-1.003 Y7.199 E196.91164
;LAYER:45
M117 Nb = 46 / 450
G0 F4800 X-1.003 Y7.000 Z9.260
G0 X-7.041 Y7.041
G0 X-7.000 Y6.700
G0 X-6.700 Y6.700
;TYPE:WALL-OUTER
G1 F360 X6.700 Y6.700 E197.35732
G1 X6.700 Y-6.700 E197.80301
G1 X-6.700 Y-6.700 E198.24869
G1 X-6.700 Y-0.392 E198.45850
G1 X-7.300 Y-0.392 E198.47845
G1 X-7.300 Y-7.300 E198.70822
G1 X7.300 Y-7.300 E199.19381
G1 X7.300 Y7.300 E199.67941
G1 X-7.300 Y7.300 E200.16501
G1 X-7.300 Y0.392 E200.39477
G1 X-6.700 Y0.392 E200.41473
G1 X-6.700 Y6.700 E200.62453
G0 F4800 X-7.000 Y6.700
G0 X-7.041 Y7.041
G0 X-1.542 Y7.000
G0 X-1.542 Y7.199
;TYPE:FILL
G1 F480 X-1.142 Y6.799 E200.64335
G0 F4800 X-1.142 Y7.000
G0 X1.142 Y7.000
G0 X1.142 Y6.799
G1 F480 X1.542 Y7.199 E200.66216
G0 F4800 X1.542 Y7.000
G0 X7.041 Y7.041
G0 X7.000 Y1.542
G0 X7.199 Y1.542
G1 F480 X6.799 Y1.142 E200.68098
G0 F4800 X7.000 Y1.142
G0 X7.000 Y-1.142
G0 X6.799 Y-1.142
G1 F480 X7.199 Y-1.542 E200.69979
G0 F4800 X7.000 Y-1.542
G0 X7.041 Y-7.041
G0 X1.542 Y-7.000
G0 X1.542 Y-7.199
G1 F480 X1.142 Y-6.799 E200.71860
G0 F4800 X1.142 Y-7.000
G0 X-1.142 Y-7.000
G0 X-1.142 Y-6.799
G1 F480 X-1.542 Y-7.199 E200.73742
G0 F4800 X-1.542 Y-7.000
G0 X-7.041 Y-7.041
G0 X-7.000 Y-1.542
G0 X-7.199 Y-1.542
G1 F480 X-6.799 Y-1.142 E200.75623
G0 F4800 X-7.000 Y-1.142
G0 X-7.041 Y-7.041
G0 X7.041 Y7.041
G0 X-7.041 Y7.041
G0 X-7.000 Y1.142
G0 X-6.799 Y1.142
G1 F480 X-7.199 Y1.542 E200.77505
G0 F4800 X-7.000 Y1.542
G0 X-7.041 Y7.041
G0 X-2.600 Y7.000
G0 X-2.600 Y6.800
;TYPE:SKIN
G1 F480 X-2.400 Y7.200 E200.78832
G1 X-2.000 Y6.800 E200.80164
G1 X-1.600 Y7.200 E200.81495
G1 X-1.200 Y6.800 E200.82826
G1 X-0.800 Y7.200 E200.84157
G1 X-0.400 Y6.800 E200.85488
G1 X0.000 Y7.200 E200.86819
G1 X0.400 Y6.800 E200.88150
G1 X0.800 Y7.200 E200.89482
G1 X1.200 Y6.800 E200.90813
G1 X1.600 Y7.200 E200.92144
G1 X2.000 Y6.800 E200.93475
G1 X2.400 Y7.200 E200.94806
G1 X2.600 Y6.800 E200.96294
G0 F4800 X2.600 Y7.000
G0 X7.041 Y7.041
G0 X7.000 Y2.534
G0 X6.799 Y2.534
G1 F480 X6.999 Y2.051 E200.98171
G1 X6.999 Y1.485 E201.00049
G1 X6.999 Y0.919 E201.01927
G1 X6.999 Y0.353 E201.03810
G1 X6.999 Y-0.211 E201.05686
G1 X6.999 Y-0.776 E201.07565
G1 X6.999 Y-1.342 E201.09447
G1 X6.999 Y-1.908 E201.11325
G1 X7.199 Y-2.391 E201.13064
;LAYER:46
M117 Nb = 47 / 450
G0 F4800 X7.000 Y-2.391 Z9.460
G0 X7.000 Y-6.700
G0 X6.700 Y-6.700
;TYPE:WALL-OUTER
G1 F360 X-6.700 Y-6.700 E201.57632
G1 X-6.700 Y-0.327 E201.78829
G1 X-7.300 Y-0.327 E201.80825
G1 X-7.300 Y-7.300 E202.04017
G1 X7.300 Y-7.300 E202.52577
G1 X7.300 Y7.300 E203.01137
G1 X-7.300 Y7.300 E203.49696
G1 X-7.300 Y0.327 E203.72889
G1 X-6.700 Y0.327 E203.74884
G1 X-6.700 Y6.700 E203.96081
G1 X6.700 Y6.700 E204.40650
G1 X6.700 Y-6.700 E204.85218
G0 F4800 X7.000 Y-6.700
G0 X7.000 Y-1.542
G0 X7.199 Y-1.542
;TYPE:FILL
G1 F480 X6.799 Y-1.142 E204.87100
G0 F4800 X7.000 Y-1.142
G0 X7.000 Y1.142
G0 X6.799 Y1.142
G1 F480 X7.199 Y1.542 E204.88981
G0 F4800 X7.000 Y1.542
G0 X7.041 Y7.041
G0 X1.542 Y7.000
G0 X1.542 Y7.199
G1 F480 X1.142 Y6.799 E204.90863
G0 F4800 X1.142 Y7.000
G0 X-1.142 Y7.000
G0 X-1.142 Y6.799
G1 F480 X-1.542 Y7.199 E204.92744
G0 F4800 X-1.542 Y7.000
G0 X-7.041 Y7.041
G0 X-7.000 Y1.542
G0 X-7.199 Y1.542
G1 F480 X-6.799 Y1.142 E204.94625
G0 F4800 X-7.000 Y1.142
G0 X-6.959 Y6.959
G0 X6.959 Y-6.959
G0 X-6.959 Y-6.959
G0 X-7.000 Y-1.142
G0 X-6.799 Y-1.142
G1 F480 X-7.199 Y-1.542 E204.96507
G0 F4800 X-7.000 Y-1.542
G0 X-7.041 Y-7.041
G0 X-1.542 Y-7.000
G0 X-1.542 Y-7.199
G1 F480 X-1.142 Y-6.799 E204.98388
G0 F4800 X-1.142 Y-7.000
G0 X1.142 Y-7.000
G0 X1.142 Y-6.799
G1 F480 X1.542 Y-7.199 E205.00270
G0 F4800 X1.542 Y-7.000
G0 X7.041 Y-7.041
G0 X7.000 Y-2.475
G0 X6.858 Y-2.475
;TYPE:SKIN
G1 F480 X6.999 Y-2.051 E205.01875
G1 X6.999 Y-1.485 E205.03748
G1 X6.999 Y-0.920 E205.05623
G1 X6.999 Y-0.354 E205.07500
G1 X6.999 Y0.210 E205.09376
G1 X6.999 Y0.776 E205.11249
G1 X6.999 Y1.342 E205.13127
G1 X6.999 Y1.908 E205.15005
G1 X7.199 Y2.390 E205.16741
G0 F4800 X7.000 Y2.390
G0 X7.041 Y7.041
G0 X2.744 Y6.987
G1 F480 X2.473 Y6.999 E205.17623
G1 X1.908 Y6.999 E205.19502
G1 X1.342 Y6.999 E205.21380
G1 X0.776 Y6.999 E205.23262
G1 X0.211 Y6.999 E205.25141
G1 X-0.353 Y6.999 E205.27017
G1 X-0.919 Y6.999 E205.28900
G1 X-1.485 Y6.999 E205.30778
G1 X-2.051 Y6.999 E205.32655
G1 X-2.534 Y6.799 E205.34394
;LAYER:47
M117 Nb = 48 / 450
G0 F4800 X-2.534 Y7.000 Z9.660
G0 X-7.041 Y7.041
G0 X-7.000 Y6.700
G0 X-6.700 Y6.700
;TYPE:WALL-OUTER
G1 F360 X6.700 Y6.700 E205.78963
G1 X6.700 Y-6.700 E206.23531
G1 X-6.700 Y-6.700 E206.68100
G1 X-6.700 Y-0.262 E206.89513
G1 X-7.300 Y-0.262 E206.91508
G1 X-7.300 Y-7.300 E207.14917
G1 X7.300 Y-7.300 E207.63477
G1 X7.300 Y7.300 E208.12036
G1 X-7.300 Y7.300 E208.60596
G1 X-7.300 Y0.262 E208.84005
G1 X-6.700 Y0.262 E208.86000
G1 X-6.700 Y6.700 E209.07413
G0 F4800 X-7.000 Y6.700
G0 X-7.041 Y7.041
G0 X-1.542 Y7.000
G0 X-1.542 Y7.199
;TYPE:FILL
G1 F480 X-1.142 Y6.799 E209.09295
G0 F4800 X-1.142 Y7.000
G0 X1.142 Y7.000
G0 X1.142 Y6.799
G1 F480 X1.542 Y7.199 E209.11176
G0 F4800 X1.542 Y7.000
G0 X7.041 Y7.041
G0 X7.000 Y1.542
G0 X7.199 Y1.542
G1 F480 X6.799 Y1.142 E209.13058
G0 F4800 X7.000 Y1.142
G0 X7.000 Y-1.142
G0 X6.799 Y-1.142
G1 F480 X7.199 Y-1.542 E209.14939
G0 F4800 X7.000 Y-1.542
G0 X7.041 Y-7.041
G0 X1.542 Y-7.000
G0 X1.542 Y-7.199
G1 F480 X1.142 Y-6.799 E209.16821
G0 F4800 X1.142 Y-7.000
G0 X-1.142 Y-7.000
G0 X-1.142 Y-6.799
G1 F480 X-1.542 Y-7.199 E209.18702
G0 F4800 X-1.542 Y-7.000
G0 X-7.041 Y-7.041
G0 X-7.000 Y-1.542
G0 X-7.199 Y-1.542
G1 F480 X-6.799 Y-1.142 E209.20584
G0 F4800 X-7.000 Y-1.142
G0 X-7.041 Y-7.041
G0 X7.041 Y7.041
G0 X-7.041 Y7.041
G0 X-7.000 Y1.142
G0 X-6.799 Y1.142
G1 F480 X-7.199 Y1.542 E209.22465
G0 F4800 X-7.000 Y1.542
G0 X-7.041 Y7.041
G0 X-1.991 Y7.000
G0 X-1.991 Y6.799
;TYPE:SKIN
G1 F480 X-2.108 Y7.199 E209.24347
G1 X-1.342 Y6.999 E209.26223
G1 X-0.776 Y6.999 E209.28105
G1 X-0.211 Y6.999 E209.29985
G1 X0.353 Y6.999 E209.31860
G1 X0.919 Y6.999 E209.33743
G1 X1.485 Y6.999 E209.35621
G1 X2.051 Y6.999 E209.37499
G1 X2.462 Y6.871 E209.38930
G0 F4800 X2.462 Y7.000
G0 X7.041 Y7.041
G0 X6.972 Y2.361
G1 F480 X6.998 Y2.051 E209.39996
G1 X6.998 Y1.486 E209.41875
G1 X6.998 Y0.920 E209.43758
G1 X6.998 Y0.354 E209.45640
G1 X6.998 Y-0.210 E209.47516
G1 X6.998 Y-0.776 E209.49399
G1 X6.998 Y-1.341 E209.51278
G1 X6.998 Y-1.907 E209.53160
G1 X7.169 Y-2.361 E209.54774
;LAYER:48
M117 Nb = 49 / 450
G1 F3900 E205.04774
G0 F4800 X6.700 Y-6.700 Z9.860
;TYPE:WALL-OUTER
G1 F3900 E209.54774
G1 F360 X-6.700 Y-6.700 E209.99343
G1 X-6.700 Y6.700 E210.43911
G1 X6.700 Y6.700 E210.88480
G1 X6.700 Y-6.700 E211.33048
G0 F4800 X7.300 Y-7.239
G1 F360 X7.300 Y7.300 E211.81405
G1 X-7.300 Y7.300 E212.29965
G1 X-7.300 Y-7.239 E212.78322
G1 X7.300 Y-7.239 E213.26882
G0 F4800 X7.000 Y-7.029
G0 X7.000 Y-1.542
G0 X7.199 Y-1.542
;TYPE:FILL
G1 F480 X6.799 Y-1.142 E213.28763
G0 F4800 X7.000 Y-1.142
G0 X7.000 Y1.142
G0 X6.799 Y1.142
G1 F480 X7.199 Y1.542 E213.30645
G0 F4800 X7.000 Y1.542
G0 X7.041 Y7.041
G0 X1.542 Y7.000
G0 X1.542 Y7.199
G1 F480 X1.142 Y6.799 E213.32526
G0 F4800 X1.142 Y7.000
G0 X-1.142 Y7.000
G0 X-1.142 Y6.799
G1 F480 X-1.542 Y7.199 E213.34408
G0 F4800 X-1.542 Y7.000
G0 X-7.041 Y7.041
G0 X-7.000 Y1.542
G0 X-7.199 Y1.542
G1 F480 X-6.799 Y1.142 E213.36289
G0 F4800 X-7.000 Y1.142
G0 X-7.000 Y-1.142
G0 X-6.799 Y-1.142
G1 F480 X-7.199 Y-1.542 E213.38171
G1 F3900 E208.88171
G0 F4800 X-1.482 Y-7.138
G1 F3900 E213.38171
G1 F480 X-1.142 Y-6.799 E213.39767
G0 F4800 X-1.142 Y-7.000
G0 X1.142 Y-7.000
G0 X1.142 Y-6.799
G1 F480 X1.482 Y-7.138 E213.41364
G1 F3900 E208.91364
G0 F4800 X1.425 Y6.799
;TYPE:SKIN
G1 F3900 E213.41364
G1 F480 X1.968 Y7.060 E213.43243
G1 X1.991 Y6.799 E213.44114
G0 F4800 X1.260 Y7.199
G1 F480 X0.776 Y6.999 E213.45996
G1 X0.211 Y6.999 E213.47875
G1 X-0.353 Y6.999 E213.49751
G1 X-0.919 Y6.999 E213.51633
G1 X-1.485 Y6.999 E213.53511
G1 X-1.968 Y6.799 E213.55250
;LAYER:49
M117 Nb = 50 / 450
G0 F4800 X-1.968 Y7.000 Z10.060
G0 X-7.041 Y7.041
G0 X-7.000 Y6.700
G0 X-6.700 Y6.700
;TYPE:WALL-OUTER
G1 F360 X6.700 Y6.700 E213.99818
G1 X6.700 Y-6.700 E214.44387
G1 X-6.700 Y-6.700 E214.88955
G1 X-6.700 Y6.700 E215.33524
G0 F4800 X-7.300 Y7.300
G1 F360 X-7.300 Y-7.039 E215.81216
G1 X7.300 Y-7.039 E216.29776
G1 X7.300 Y7.300 E216.77467
G1 X-7.300 Y7.300 E217.26027
G0 F4800 X-7.090 Y7.000
G0 X-1.542 Y7.000
G0 X-1.542 Y7.199
;TYPE:FILL
G1 F480 X-1.142 Y6.799 E217.27909
G0 F4800 X-1.142 Y7.000
G0 X1.142 Y7.000
G0 X1.142 Y6.799
G1 F480 X1.542 Y7.199 E217.29790
G0 F4800 X1.542 Y7.000
G0 X7.041 Y7.041
G0 X7.000 Y1.542
G0 X7.199 Y1.542
G1 F480 X6.799 Y1.142 E217.31672
G0 F4800 X7.000 Y1.142
G0 X7.000 Y-1.142
G0 X6.799 Y-1.142
G1 F480 X7.199 Y-1.542 E217.33553
G0 F4800 X7.000 Y-1.542
G0 X7.041 Y7.041
G0 X-7.041 Y7.041
G0 X-7.000 Y-1.142
G0 X-6.799 Y-1.142
G1 F480 X-7.199 Y-1.542 E217.35434
G0 F4800 X-7.000 Y-1.542
G0 X-7.000 Y1.142
G0 X-6.799 Y1.142
G1 F480 X-7.199 Y1.542 E217.37316
G0 F4800 X-7.000 Y1.542
G0 X-7.041 Y7.041
G0 X-1.658 Y7.032
;TYPE:SKIN
G1 F480 X-1.342 Y6.999 E217.38412
G1 X-0.776 Y6.999 E217.40295
G1 X-0.211 Y6.999 E217.42174
G1 X0.353 Y6.999 E217.44050
G1 X0.919 Y6.999 E217.45932
G1 X1.529 Y6.955 E217.47809
G1 X1.568 Y7.199 E217.48631
;LAYER:50
M104 S215
M117 Nb = 51 / 450
G0 F4800 X1.568 Y7.000 Z10.260
G0 X6.700 Y7.000
G0 X6.700 Y6.700
;TYPE:WALL-OUTER
G1 F360 X6.700 Y-6.700 E217.93199
G1 X-6.700 Y-6.700 E218.37768
G1 X-6.700 Y6.700 E218.82336
G1 X6.700 Y6.700 E219.26905
G0 F4800 X7.300 Y7.300
G1 F360 X-7.300 Y7.300 E219.75465
G1 X-7.300 Y-7.159 E220.23556
G1 X7.300 Y-7.159 E220.72116
G1 X7.300 Y7.300 E221.20206
G0 F4800 X7.000 Y7.090
G0 X1.542 Y7.000
G0 X1.542 Y7.199
;TYPE:FILL
G1 F480 X1.142 Y6.799 E221.22088
G0 F4800 X1.142 Y7.000
G0 X-1.142 Y7.000
G0 X-1.142 Y6.799
G1 F480 X-1.542 Y7.199 E221.23969
G0 F4800 X-1.542 Y7.000
G0 X-7.041 Y7.041
G0 X-7.000 Y1.542
G0 X-7.199 Y1.542
G1 F480 X-6.799 Y1.142 E221.25851
